!!!!SEGMENT: pl-wnifc--3125-n--001-005_wieniawski-jozef--24-etudes-23me-etude.krn
!!!cenid: 18xx:3849
!!!COM: Wieniawski, Józef
!!!COM-rismID: pe137276
!!!CDT: 1837/05/23-1912/11/11
!!!CNT: Polish
!!!GTL: 24 Études
!!!OTL: 23me Etude
!!!OMV: 005
!!!PDT:
!!!AGN: Secular; Etude
!!!YEC: Copyright 2022 Narodowy Instytut Fryderyka Chopina (https://polishscores.org)
!!!YEM: License CC-BY-4.0 (https://creativecommons.org/licenses/by/4.0)
!!!SMS-siglum: PL-Wnifc
!!!SMS-shelfmark: 3125/n
!!!SMS-shelfwork: 001-005 G
!!!SMS-variant:
!!!SMS-altvar:
!!!NIFC-rismSourceID: 1001142383
!!!NIFC-rismChildID: 1001142389
!!!NIFC-islandoraID: nifc:212194
!!!URL-pdf-islandora: https://repozytorium.nifc.pl/islandora/object/nifc%3A212194/datastream/PDF/view
!!!URL-scan: https://polish.musicsources.pl/pl/lokalizacje/galeria/druki-muzyczne/16832 @EN{Scan on Polish Music Sources Website} @PL{Skany w portalu Dziedzictwo Muzyki Polskiej w otwartym dostępie}
!!!IIIF:
!!!ONB-nifc: UWAGA: w zbiorze znajdują się Etiudy od nr 19-24 (pliki 001-006).
!!!OMD: Presto, con brio.
!!!AIN: 1 piano
!!!key: F
**kern	**fing	**kern	**fing	**dynam
*part1	*	*part1	*	*
*staff2	*	*staff1	*	*
*I"PIANO	*	*I"PIANO	*	*
*I'	*	*I'	*	*
*Ipiano	*	*Ipiano	*	*
*ICklav	*	*ICklav	*	*
*clefG2	*	*clefG2	*	*
*k[b-]	*	*k[b-]	*	*
*F:	*	*F:	*	*
*M4/4	*	*M4/4	*	*
*met(c)	*	*met(c)	*	*
=1	=1	=1	=1	=1
*^	*^	*	*	*
*	*	*	*	*Xtuplet	*	*
4r	2ryy	.	.	24ccc\LL	1	p
.	.	.	.	24ddd\	4	.
.	.	.	.	24ccc\J	3	.
.	.	.	.	24eee\L	5	.
.	.	.	.	24ddd\	4	.
.	.	.	.	24ccc\JJ	3	.
4cc 4c/	.	.	.	24aa\LL	1	.
.	.	.	.	24bb-\	4	.
.	.	.	.	24aa\J	3	.
.	.	.	.	24ccc\L	5	.
.	.	.	.	24bb-\	.	.
.	.	.	.	24aa\JJ	.	.
2b-/	4f\	.	4	24gg\LL	1	.
.	.	.	.	24aa\	3	.
.	.	.	.	24gg\J	2	.
.	.	.	.	24bb-\L	4	.
.	.	.	.	24aa\	.	.
.	.	.	.	24gg\JJ	.	.
.	4g\	.	3	24dd\LL	1	.
.	.	.	.	24ee\	3	.
.	.	.	.	24dd\J	2	.
.	.	.	.	24ff\L	4	.
.	.	.	.	24ee\	.	.
.	.	.	.	24dd\JJ	.	.
*	*	*v	*v	*	*	*
*v	*v	*	*	*	*
=2	=2	=2	=2	=2
*	*below	*	*	*
4a 4f/	1 2	24cc\LL	1	.
.	.	24dd\	4	.
.	.	24cc\J	3	.
.	.	24ee\L	5	.
.	.	24dd\	.	.
.	.	24cc\JJ	.	.
*	*	*	*below	*
4c/	4	24a/LL	1	.
.	.	24b-/	4	.
.	.	24a/J	3	.
.	.	24cc/L	5	.
.	.	24b-/	.	.
.	.	24a/JJ	.	.
*clefF4	*Xbelow	*	*	*
4A\	1	24f/LL	1	.
.	.	24g/	3	.
.	.	24f/J	2	.
.	.	24a/L	4	.
.	.	24g/	.	.
.	.	24f/JJ	.	.
*	*below	*	*	*
4FF/	5	24d/LL	1	.
.	.	24e/	3	.
.	.	24d/J	2	.
.	.	24f/L	4	.
.	.	24e/	.	.
.	.	24d/JJ	.	.
!!LO:LB:g=original
=3	=3	=3	=3	=3
4AA/	4	24c/LL	.	.
.	.	24d/	.	.
.	.	24e/J	.	.
.	.	24f/L	.	.
.	.	24g/	.	.
.	.	24a/JJ	.	.
4C/	2	24b-\LL	.	.
.	.	24cc\	.	.
.	.	24dd\J	.	.
.	.	24ee\L	.	.
.	.	24ff\	.	.
.	.	24gg\JJ	.	.
*	*Xbelow	*	*	*
4c\	1	24aa\LL	.	.
.	.	24bb-\	.	.
.	.	24ccc\J	.	.
.	.	24ddd\L	.	.
.	.	24eee\	.	.
*	*	*	*Xbelow	*
.	.	24fff\JJ	1	.
4F\	2	24ggg\LL	.	.
.	.	24aaa\	.	.
*	*	*8va	*	*
.	.	24bbb-\J	.	.
.	.	24cccc\L	5	.
.	.	24aaa\	3	.
.	.	24fff\JJ	1	.
=4	=4	=4	=4	=4
4GG/	.	24dddd^\LL	4	.
.	.	24eeee\	.	.
.	.	24dddd\J	.	.
.	.	24cccc\L	.	.
.	.	24bbb-\	.	.
*	*below	*X8va	*	*
.	.	24aaa\JJ	1	.
[4B-: 4D:\	3	24ggg\LL	4	.
.	.	24fff\	.	.
.	.	24eee\J	.	.
.	.	24ddd\L	1	.
.	.	24ccc\	3	.
.	.	24bb-\JJ	2	.
16B-] 16E 16C\	4	24aa\LL	1	<
.	.	24bb-\	2	.
16r	.	.	.	.
.	.	24bbn\J	1	.
8r	.	24ccc\L	2	.
.	.	24aaa\	5	.
.	.	24ggg\JJ	.	[
*clefG2	*	*	*	*
!	!	!LO:TX:t=P:problem=mixed beam	!	!
4ryy	.	24eee\LL	2	>
.	.	24ccc\	1	.
.	1	24bb-X</J	.	.
.	.	24gg</L	.	.
.	3	24ee</	.	.
.	5	24cc</JJ	.	]
!!LO:LB:g=original
=5	=5	=5	=5	=5
*^	*^	*	*	*
4r	2ryy	.	.	24ccc\LL	3	.
.	.	.	.	24ddd\	.	.
.	.	.	.	24ccc\J	.	.
.	.	.	.	24fff\L	.	.
.	.	.	.	24ddd\	.	.
.	.	.	.	24ccc\JJ	.	.
4cc 4c/	.	.	.	24aa\LL	1	.
.	.	.	.	24bb-\	3	.
.	.	.	.	24aa\J	2	.
.	.	.	.	24ddd\L	5	.
.	.	.	.	24ccc\	4	.
.	.	.	.	24aa\JJ	.	.
2b-/	4f\	.	4	24gg\LL	1	.
.	.	.	.	24aa\	3	.
.	.	.	.	24gg\J	2	.
.	.	.	.	24ccc\L	5	.
.	.	.	.	24aa\	3	.
.	.	.	.	24gg\JJ	.	.
.	4g\	.	.	24dd\LL	1	.
.	.	.	.	24ee\	3	.
.	.	.	.	24dd\J	2	.
.	.	.	.	24gg\L	.	.
.	.	.	.	24ee\	.	.
.	.	.	.	24dd\JJ	.	.
*	*	*v	*v	*	*	*
*v	*v	*	*	*	*
=6	=6	=6	=6	=6
4a 4f/	1 2	24cc\LL	1	.
.	.	24dd\	3	.
.	.	24cc\J	2	.
.	.	24ff\L	.	.
.	.	24dd\	.	.
.	.	24cc\JJ	.	.
4c/	4	24a\LL	1	.
.	.	24b-\	3	.
.	.	24a\J	.	.
.	.	24dd\L	5	.
.	.	24cc\	4	.
.	.	24a\JJ	.	.
*clefF4	*Xbelow	*	*below	*
4A\	1	24f/LL	1	.
.	.	24g/	3	.
.	.	24f/J	2	.
.	.	24cc/L	5	.
.	.	24a/	4	.
.	.	24f/JJ	.	.
4FF/	.	24d/LL	1	.
.	.	24e/	3	.
.	.	24d/J	.	.
.	.	24a/L	5	.
.	.	24f/	4	.
.	.	24d/JJ	.	.
!!LO:LB:g=original
=7	=7	=7	=7	=7
*^	*^	*	*	*
4AA-X/	1AA-	.	4	24c/LL	1	.
.	.	.	.	24d/	.	.
.	.	.	.	24e/J	.	.
.	.	.	.	24f/L	1	.
.	.	.	.	24g/	.	.
.	.	.	.	24a-X/JJ	.	.
4C/	.	.	.	24b-\LL	.	.
*	*	*	*	*	*Xbelow	*
.	.	.	.	24cc\	1	.
.	.	.	.	24dd\J	.	.
.	.	.	.	24ee\L	.	.
.	.	.	.	24ff\	.	.
.	.	.	.	24gg\JJ	.	.
4F\	.	.	.	24aa-X\LL	.	.
.	.	.	.	24bb-\	.	.
.	.	.	.	24ccc\J	.	.
.	.	.	.	24ddd\L	.	.
.	.	.	.	24eee\	.	.
.	.	.	.	24fff\JJ	1	.
4D\	.	.	.	24ggg\LL	.	.
.	.	.	.	24aaa-X\	.	.
*	*	*	*	*8va	*	*
.	.	.	.	24bbb-\J	.	.
.	.	.	.	24cccc\L	5	.
.	.	.	.	24aaa-\	3	.
.	.	.	.	24fff\JJ	2	.
=8	=8	=8	=8	=8	=8	=8
4GG/	4ryy	.	.	24eee\LL	1	.
.	.	.	.	24aaaan\	5	.
.	.	.	.	24gggg\J	.	.
.	.	.	.	24eeee\L	3	.
.	.	.	.	24cccc\	2	.
*	*	*	*	*X8va	*	*
.	.	.	.	24aaa\JJ	1	.
2.G:/	4E:\	.	1 3	24ggg\LL	4	.
.	.	.	.	24aaa\	.	.
.	.	.	.	24ggg\J	.	.
.	.	.	.	24eee\L	.	.
.	.	.	.	24ccc\	.	.
.	.	.	.	24aa\JJ	1	.
.	2F\	2	.	24bb-\LL	.	.
.	.	.	.	24bbn\	1	.
.	.	.	.	24ccc\J	.	.
.	.	.	.	24ccc#X\L	.	.
.	.	.	.	24eee\	5	.
.	.	.	.	24ddd\JJ	.	.
.	.	.	.	24bb\LL	.	.
.	.	.	.	24gg\	1	.
.	.	.	.	24fff\J	5	.
.	.	.	.	24eee\L	.	.
.	.	.	.	24aa\	1	.
.	.	.	.	24bb\JJ	.	.
*	*	*v	*v	*	*	*
!!LO:LB:g=original
=9	=9	=9	=9	=9	=9
*ped	*	*	*	*	*
4E 4GG 4CC/	4ryy	.	24cccn'\LL	3	.
*	*	*	*8va	*	*
.	.	.	24dddd\	5	.
.	.	.	24cccc\J	.	.
.	.	.	24bbb-X\L	.	.
.	.	.	24ggg\	.	.
.	.	.	24eee\JJ	1	.
*clefG2	*	*below	*	*	*
8ee/L	4ee\	4	24bbb-\LL	4	.
.	.	.	24cccc\	.	.
.	.	.	24bbb-\J	.	.
8bb-/J	.	2	24ggg\L	.	.
.	.	.	24eee\	.	.
*Xped	*	*	*	*	*
.	.	.	24ccc\JJ	1	.
*	*	*	*X8va	*	*
8cc/L	4cc\	5	24ggg\LL	4	.
.	.	.	24aaa\	.	.
.	.	.	24ggg\J	.	.
8ee/J	.	1	24eee\L	2	.
.	.	.	24ccc\	1	.
.	.	.	24bb-\JJ	2	.
8b-/L	4b-\	2	24aa\LL	1	<
.	.	.	24bb-\	.	.
.	.	.	24bbn\J	1	.
8ee/J	.	1	24ccc\L	.	.
.	.	.	24ddd-X\	.	.
.	.	.	24ggg\JJ	5	[[
=10	=10	=10	=10	=10	=10
8g/L	4g\	3	24eee\LL	4	>
.	.	.	24ddd-X\	.	.
.	.	.	24ccc\J	.	.
8b-X/J	.	2	24bbn\L	1	.
.	.	.	24bb-X\	3	.
.	.	.	24aa\JJ	.	]
8e/L	4e\	4	24gg\LL	1	.
.	.	.	24ccc\	5	.
.	.	.	24bb-\J	.	.
8g/J	.	3	24gg\L	.	.
.	.	.	24ee\	.	.
.	.	.	24cc\JJ	1	.
*clefF4	*	*	*	*	*
8c/L	4c\	5	24gg\LL	4	.
.	.	.	24aa\	.	.
.	.	.	24gg\J	.	.
8e/J	.	1	24ee\L	.	.
.	.	.	24cc\	1	.
.	.	.	24b-\JJ	2	.
8B-/L	4B-\	2	24a\LL	1	.
.	.	.	24b-\	.	.
.	.	.	24bn\J	1	.
8e/J	.	1	24cc\L	.	.
.	.	.	24dd-X\	.	.
.	.	.	24ee-X\JJ	4	.
!!LO:PB:g=original
=11	=11	=11	=11	=11	=11
8G/L	4G\	3	24dd-X\LL	.	.
.	.	.	24cc\	.	.
.	.	.	24bn\J	1	.
8B-/J	.	.	24b-X\L	3	.
.	.	.	24a\	.	.
.	.	.	24g\JJ	1	.
8E/L	4En\	4	24a\LL	.	.
.	.	.	24b-\	.	.
.	.	.	24bn\J	1	.
8G/J	.	.	24cc\L	.	.
.	.	.	24dd-X\	.	.
.	.	.	24gg\JJ	5	.
8C/L	4C\	5	24ee\LL	4	.
.	.	.	24dd-\	.	.
.	.	.	24cc\J	.	.
8E/J	.	1	24b\L	1	.
.	.	.	24b-X\	4	.
.	.	.	24g\JJ	.	.
4GG\	4ryy	2	24e/LL	.	.
.	.	.	24c/	1	.
.	.	.	24Bn</J	4	.
.	.	.	24B-X</L	.	.
.	.	.	24G</	.	.
.	.	.	24E</JJ	1	.
*v	*v	*	*	*	*
=12	=12	=12	=12	=12
4CC^\	5	24r	.	.
*	*	*	*below	*
!	!	!	!	!LO:HP:a
.	.	24BB-</LL	1	<
.	.	24D#X</J	.	.
.	.	24E</L	.	.
.	.	24B-</	.	.
.	.	24BB-</JJ	.	.
4DD-X^\	.	24r	.	.
.	.	24BB-</LL	.	.
.	.	24E</J	.	.
.	.	24F</L	.	.
.	.	24B-</	.	.
.	.	24BB-</JJ	.	.
4DDn^\	.	16r	.	.
.	.	16BB-</	1	.
.	.	24F</LL	3	.
.	.	24F#X</	.	.
.	.	24B-</JJ	.	.
4EE-X^\	2	16r	.	.
.	.	16D-X</	1	.
.	.	24E-X</LL	.	.
.	.	24G</	.	.
.	.	24Bn</JJ	.	[[
!!LO:LB:g=original
=13||	=13||	=13||	=13||	=13||
*k[b-e-a-d-]	*	*k[b-e-a-d-]	*	*
*^	*^	*	*	*
*ped	*	*	*	*	*Xbelow	*
4AAA-^/	4ryy	.	.	24r	.	p
.	.	.	.	24fff\LL	4	.
.	.	.	.	24eee-\J	.	.
.	.	.	.	24ggg\L	.	.
.	.	.	.	24fff\	.	.
.	.	.	.	24eee-\JJ	.	.
*Xped	*	*	*	*	*	*
*clefG2	*	*	*	*	*	*
4ee- 4e-/	4ryy	.	.	24ccc\LL	1	.
.	.	.	.	24ddd-\	3	.
.	.	.	.	24ccc\J	2	.
.	.	.	.	24eee-\L	4	.
.	.	.	.	24ddd-\	3	.
.	.	.	.	24ccc\JJ	1	.
2dd-/	4f\	1	4	24bb-\LL	2	.
.	.	.	.	24ccc\	3	.
.	.	.	.	24bb-\J	2	.
.	.	.	.	24ddd-\L	4	.
.	.	.	.	24ccc\	.	.
.	.	.	.	24bb-\JJ	.	.
.	4g\	.	.	24ff\LL	1	.
.	.	.	.	24gg\	3	.
.	.	.	.	24ff\J	2	.
.	.	.	.	24aa-\L	4	.
.	.	.	.	24gg\	3	.
.	.	.	.	24ff\JJ	1	.
*	*	*v	*v	*	*	*
*v	*v	*	*	*	*
=14	=14	=14	=14	=14
4cc 4a-\	1 2	24ee-\LL	3	.
.	.	24ff\	.	.
.	.	24ee-\J	.	.
.	.	24gg\L	5	.
.	.	24ff\	.	.
.	.	24ee-\JJ	.	.
4e-/	4	24cc\LL	1	.
.	.	24dd-\	3	.
.	.	24cc\J	2	.
.	.	24ee-\L	4	.
.	.	24dd-\	3	.
.	.	24cc\JJ	1	.
*clefF4	*Xbelow	*	*	*
4c\	1	24a-/LL	2	.
.	.	24b-/	.	.
.	.	24a-/J	.	.
.	.	24cc/L	5	.
.	.	24b-/	3	.
.	.	24a-/JJ	2	.
*	*below	*	*	*
4AA-/	5	24f/LL	1	.
.	.	24g/	3	.
.	.	24f/J	2	.
.	.	24a-/L	4	.
.	.	24g/	3	.
.	.	24f/JJ	1	.
!!LO:LB:g=original
=15	=15	=15	=15	=15
4C/	4	24e-/LL	3	.
.	.	24dn/	2	.
.	.	24e-/J	3	.
.	.	24f/L	1	<
.	.	24g/	.	.
.	.	24a-/JJ	.	.
*	*Xbelow	*	*	*
4E-\	3	24b-\LL	.	.
.	.	24cc\	.	.
.	.	24dd-X\J	.	.
.	.	24ee-\L	.	.
.	.	24ff\	.	.
.	.	24gg\JJ	.	.
*	*below	*	*	*
4e-\	1	24aa-\LL	.	.
.	.	24bb-\	.	.
.	.	24ccc\J	.	.
.	.	24ddd-\L	.	.
.	.	24eee-\	.	.
.	.	24fff\JJ	.	.
*	*Xbelow	*	*	*
4A-\	2	24ggg\LL	.	.
.	.	24aaa-\	.	.
*	*	*8va	*	*
.	.	24bbb-\J	.	.
.	.	24cccc\L	.	.
.	.	24dddd-\	.	.
.	.	24eeee-\JJ	.	[[
=16	=16	=16	=16	=16
4BB-/	.	24ffff\LL	4	.
.	.	24gggg\	.	.
.	.	24ffff\J	.	.
.	.	24eeee-\L	.	.
.	.	24dddd-\	.	.
.	.	24cccc\JJ	.	>
*	*below	*	*	*
[4d-: 4F:\	3	24bbb-\LL	.	.
*	*	*X8va	*	*
.	.	24aaa-\	.	.
.	.	24ggg\J	.	.
.	.	24fff\L	.	.
.	.	24eee-\	.	.
.	.	24ddd-\JJ	.	.
*	*Xbelow	*	*	*
16d-] 16G 16E-\	4	24ccc\LL	1	.
.	.	24ddd-\	.	.
16r	.	.	.	.
.	.	24dddn\J	1	.
8r	.	24eee-\L	.	.
.	.	24eeen\	1	.
.	.	24fff\JJ	.	.
4r	.	24fff#X\LL	.	.
.	.	24ggg\	1	.
*	*	*8va	*	*
.	.	24cccc\J	5	.
.	.	24bbb-\L	4	.
.	.	24ggg\	2	]
.	.	24ddd-X\JJ	1	.
*clefG2	*	*X8va	*	*
!!LO:LB:g=original
=17||	=17||	=17||	=17||	=17||
*k[b-]	*	*k[b-]	*	*
*^	*	*	*	*
*ped	*	*	*	*	*
4ccc 4cc^\	2ryy	.	24r	.	.
*	*	*	*8va	*	*
.	.	.	24dddd\LL	4	p
.	.	.	24cccc\J	.	.
.	.	.	24ffff\L	.	.
.	.	.	24dddd\	.	.
.	.	.	24cccc\JJ	.	.
*Xped	*	*	*	*	*
4cc 4c/	.	.	24aaa\LL	1	.
.	.	.	24bbb-\	3	.
.	.	.	24aaa\J	2	.
.	.	.	24dddd\L	5	.
.	.	.	24cccc\	4	.
.	.	.	24aaa\JJ	2	.
2b-/	4d\	.	24ggg\LL	1	.
.	.	.	24aaa\	3	.
.	.	.	24ggg\J	.	.
.	.	.	24cccc\L	5	.
.	.	.	24aaa\	.	.
.	.	.	24ggg\JJ	.	.
*	*	*	*X8va	*	*
.	4e\	.	24ddd\LL	1	.
.	.	.	24eee\	3	.
.	.	.	24ddd\J	.	.
.	.	.	24ggg\L	5	.
.	.	.	24eee\	.	.
.	.	.	24ddd\JJ	.	.
=18	=18	=18	=18	=18	=18
8a 8f/	2ryy	.	24ccc\LL	.	.
.	.	.	24ddd\	.	.
.	.	.	24ccc\J	.	.
8r	.	.	24fff\L	.	.
.	.	.	24ddd\	.	.
.	.	.	24ccc\JJ	.	.
*clefF4	*	*	*	*	*
4c 4C\	.	.	24aa\LL	.	.
.	.	.	24bb-\	.	.
.	.	.	24aa\J	.	.
.	.	.	24ddd\L	.	.
.	.	.	24ccc\	.	.
.	.	.	24aa\JJ	.	.
2B-/	4D\	.	24gg\LL	.	.
.	.	.	24aa\	.	.
.	.	.	24gg\J	.	.
.	.	.	24ccc\L	.	.
.	.	.	24aa\	.	.
.	.	.	24gg\JJ	.	.
.	4E\	.	24dd\LL	.	.
.	.	.	24ee\	.	.
.	.	.	24dd\J	.	.
.	.	.	24gg\L	.	.
.	.	.	24ee\	.	.
.	.	.	24dd\JJ	.	.
*v	*v	*	*	*	*
!!LO:LB:g=original
=19	=19	=19	=19	=19
*	*^	*	*	*
8A 8F\	.	.	24cc\LL	.	pp
.	.	.	24dd\	.	.
.	.	.	24cc\J	.	.
8r	.	.	24ff\L	.	.
.	.	.	24dd\	.	.
.	.	.	24cc\JJ	.	.
8qqCC/	.	.	.	.	.
8E\L	.	.	24a\LL	.	.
.	.	.	24b-\	.	.
.	.	.	24a\J	.	.
8D\J	.	.	24dd\L	.	.
.	.	.	24cc\	.	.
.	.	.	24a\JJ	.	.
4C/	.	1	24g/LL	.	.
.	.	.	24a/	.	.
.	.	.	24g/J	.	.
.	.	.	24cc/L	.	.
.	.	.	24a/	.	.
.	.	.	24g/JJ	.	.
4BB- 4EE/	2	4	24d/LL	.	.
.	.	.	24e/	.	.
.	.	.	24d/J	.	.
.	.	.	24g/L	.	.
.	.	.	24e/	.	.
.	.	.	24d/JJ	.	.
*	*v	*v	*	*	*
=20	=20	=20	=20	=20
*^	*	*	*	*
*	*	*below	*	*	*
4FF^/	2FF\	3	24c/LL	.	.
.	.	.	24d/	.	.
.	.	.	24e/J	.	.
.	.	.	24f/L	.	.
.	.	.	24g/	.	.
.	.	.	24a/JJ	.	.
*	*	*Xbelow	*	*	*
4AA/	.	1	24b-\LL	.	<
.	.	.	24cc\	.	.
.	.	.	24dd\J	.	.
.	.	.	24ee\L	.	.
.	.	.	24ff\	.	.
.	.	.	24gg\JJ	.	.
4AAA/	2AAA\	.	24aa\LL	.	.
.	.	.	24bb-\	.	.
.	.	.	24ccc\J	.	.
.	.	.	24ddd\L	.	.
.	.	.	24eee\	.	.
.	.	.	24fff\JJ	.	.
4C/	.	.	24ggg\LL	.	.
.	.	.	24aaa\	.	.
*	*	*	*8va	*	*
.	.	.	24bbb-\J	.	.
.	.	.	24cccc\L	.	.
.	.	.	24aaa\	.	.
.	.	.	24fff\JJ	.	[[
*v	*v	*	*	*	*
!!LO:LB:g=original
=21	=21	=21	=21	=21
*ped	*	*	*	*
4GGG/	.	24dddd^\LL	4	f
.	.	24eeee\	.	.
.	.	24dddd\J	.	.
.	.	24cccc\L	.	.
.	.	24bbb-\	.	.
*	*	*X8va	*	*
.	.	24aaa\JJ	1	.
*Xped	*	*	*	*
4G 4F 4D\	4 2	24ggg\LL	4	.
.	.	24fff\	.	.
.	.	24eee\J	.	.
.	.	24ddd\L	1	.
.	.	24ccc\	3	.
.	.	24bb-\JJ	.	.
16B- 16E 16C\	5 3	24aa\LL	1	<
.	.	24bb-\	.	.
16r	.	.	.	.
.	.	24bbn\J	1	.
8r	.	24ccc\L	2	.
.	.	24aaa\	5	.
.	.	24ggg\JJ	.	[
*clefG2	*below	*	*	*
!	!	!LO:TX:t=P:problem=mixed beam	!	!
4ryy	.	24eee\LL	2	>
.	.	24ccc\	1	.
.	1	24bb-X</J	.	.
.	.	24gg</L	.	.
.	3	24ee</	.	.
.	5	24cc</JJ	.	]
=22	=22	=22	=22	=22
4r	.	24ddd^\LL	4	.
.	.	24eee\	.	.
.	.	24ddd\J	.	.
.	.	24ccc\L	.	.
.	.	24bb-\	.	.
.	.	24aa\JJ	1	.
4g: 4f: 4d: 4G:/	.	24gg\LL	4	.
.	.	24ff\	.	.
.	.	24ee\J	.	.
.	.	24dd\L	1	.
.	.	24cc\	3	.
.	.	24b-\JJ	.	.
16e 16c'/	.	24a\LL	1	<
.	.	24b-\	.	.
16r	.	.	.	.
.	.	24bn\J	1	.
8r	.	24cc\L	.	.
.	.	24aa\	5	.
.	.	24gg\JJ	.	[
!	!	!LO:TX:t=P:problem=mixed beam	!	!
4ryy	.	24ee\LL	.	>
.	.	24cc\	1	.
.	1	24b-X</J	.	.
.	.	24g</L	.	.
.	.	24e</	.	.
.	.	24c</JJ	.	]
!!LO:PB:g=original
=23	=23	=23	=23	=23
4r	.	24dd^\LL	4	.
.	.	24ee\	.	.
.	.	24dd\J	.	.
.	.	24cc\L	.	.
.	.	24b-\	.	.
.	.	24a\JJ	1	.
*clefF4	*	*	*	*
4B-: 4F: 4D: 4GG:\	.	24g/LL	4	.
.	.	24f/	.	.
.	.	24e/J	.	.
.	.	24d/L	1	.
.	.	24c/	3	.
.	.	24B-/JJ	.	.
16E 16C\	.	24A/LL	1	<
.	.	24B-/	.	.
16r	.	.	.	.
.	.	24Bn/J	1	.
8r	.	24c/L	.	.
.	.	24a/	5	.
.	.	24g/JJ	.	[
!	!	!LO:TX:t=P:problem=mixed beam	!	!
4ryy	.	24e\LL	2	>
.	.	24c\	1	.
.	1	24B-</J	.	.
.	.	24G</L	.	.
.	3	24E</	.	.
.	5	24C</JJ	.	]]
=24	=24	=24	=24	=24
4r	.	24c/LL	1	<
.	.	24d/	.	.
.	.	24d#X/J	.	.
.	.	24e/L	1	.
.	.	24cc/	5	.
.	.	24b-/JJ	.	[
!	!	!	!	!LO:HP:a
4ryy	.	24g\LL	.	>
.	.	24e\	1	.
.	1	24c</J	.	.
.	.	24B-</L	.	.
.	.	24G</	.	.
.	.	24E</JJ	.	.
4r	.	24e/LL	1	] <
.	.	24f/	.	.
.	.	24f#X/J	.	.
.	.	24g/L	1	.
.	.	24ee-X/	4	.
.	.	24dd-X/JJ	.	[
!	!	!LO:TX:t=P:problem=mixed beam	!	!LO:HP:a
4ryy	.	24b-\LL	.	>
.	.	24g\	1	.
.	1	24en</J	.	.
.	.	24d-X</L	.	.
.	.	24B-</	.	.
.	.	24G</JJ	.	]]
!!LO:LB:g=original
=25	=25	=25	=25	=25
4r	.	24een^\LL	4	.
.	.	24ff\	.	.
.	.	24ee\J	.	.
.	.	24dd-X\L	.	.
.	.	24cc\	1	.
.	.	24b-\JJ	2	.
*Xtuplet	*	*	*	*
*clefG2	*	*	*	*
!LO:TX:t=P:problem=mixed beam	!	!	!	!
24a>\LL	.	4ryy	1	.
24g/	1	.	.	.
24f/J	2	.	.	.
24e/L	3	.	.	.
24d-X/	4	.	.	.
24B-/JJ	5	.	.	.
4r	.	24gg^\LL	4	.
.	.	24aa\	.	.
.	.	24gg\J	.	.
.	.	24ff\L	3	.
.	.	24ee\	1	.
.	.	24dd-\JJ	2	.
!LO:TX:t=P:problem=mixed beam	!	!	!	!
24cc>\LL	.	4ryy	1	.
24b-/	1	.	.	.
24a/J	.	.	.	.
24g/L	.	.	.	.
24f/	.	.	.	.
24e/JJ	5	.	.	.
=26	=26	=26	=26	=26
4r	.	24bb-^\LL	4	.
.	.	24ccc\	.	.
.	.	24bb-\J	.	.
.	.	24aa\L	.	.
.	.	24gg\	.	.
.	.	24ff\JJ	1	.
!LO:TX:t=P:problem=mixed beam	!	!	!	!
24ee>\LL	.	4ryy	2	.
24dd-X/	1	.	.	.
24cc/J	.	.	.	.
24b-/L	.	.	.	.
24a/	.	.	.	.
24g/JJ	5	.	.	.
4ryy	.	24ddd-X^\LL	4	.
.	.	24eee-X\	.	.
.	.	24ddd-\J	.	.
.	.	24ccc\L	.	.
.	.	24bb-\	.	.
.	.	24aa\JJ	1	.
!LO:TX:t=P:problem=mixed beam	!	!	!	!
24gg>\LL	.	4ryy	2	.
24ff/	1	.	.	.
24ee/J	.	.	.	.
24dd-/L	.	.	.	.
24cc/	.	.	.	.
[24b-/JJ	5	.	.	.
!!LO:LB:g=original
=27	=27	=27	=27	=27
*	*	*8va	*	*
4b-/]	.	24eeeen^\LL	4	.
.	.	24ffff\	.	.
.	.	24eeee\J	.	.
.	.	24dddd-X\L	.	.
.	.	24bbb-\	.	.
.	.	24ggg\JJ	1	.
*	*	*X8va	*	*
4r	.	24eee\LL	4	.
.	.	24fff\	.	.
.	.	24eee\J	.	.
.	.	24ddd-\L	.	.
.	.	24bb-\	.	.
.	.	24gg\JJ	1	.
2r	.	24ee\LL	4	.
.	.	24ff\	.	.
.	.	24ee\J	.	.
.	.	24dd-X\L	.	.
.	.	24b-\	.	.
.	.	24g\JJ	1	.
.	.	24e/LL	4	.
.	.	24f/	.	.
.	.	24e/J	.	.
.	.	24d-X/L	.	.
.	.	24B-/	.	.
.	.	24G/JJ	1	.
*	*	*clefF4	*	*
=28	=28	=28	=28	=28
4r	.	24E/LL	4	.
.	.	24F/	.	.
.	.	24E/J	.	.
.	.	24D-X/L	.	.
.	.	24BB-/	.	.
.	.	24GG/JJ	.	.
*clefF4	*	*	*	*
24EE/LL	2	4r	.	.
24FF/	.	.	.	.
24EE/J	.	.	.	.
24DD-X/L	.	.	.	.
24BBB-/	.	.	.	.
24GGG/JJ	5	.	.	.
*ped	*	*	*	*
12BBBnL 12BBBBn^>/	.	4r	.	ff
[[24DDnL	5	.	.	.
*	*Xbelow	*	*	*
[[24FF/	4	.	.	.
[[24AA/	2	.	.	.
[>24BBn/JJ	1	.	.	.
4BB_ 4AA__< 4FF__ 4DD/__	.	24Dn\LL	1	.
.	.	24F\	.	.
.	.	24A\J	.	.
.	.	24Bn\L	4	.
.	.	24d\	1	.
.	.	24f\JJ	.	.
*	*	*clefG2	*	*
!!LO:LB:g=original
=29	=29	=29	=29	=29
2.BBnX] 2.AA]] 2.FF]] 2.DD/]]	.	24a\LL	3	.
.	.	24bn\	4	.
.	.	24dd\J	1	.
.	.	24ff\L	.	.
.	.	24aa\	.	.
.	.	24bbn\JJ	4	.
.	.	24ddd\LL	1	.
.	.	24fff\	.	.
.	.	24aaa\J	3	.
*	*	*8va	*	*
.	.	24bbb\L	4	.
.	.	24dddd\	1	.
.	.	24ffff\JJ	2	.
*Xped	*	*	*	*
.	.	2aaaa\	3	.
(4GGG/	5	.	.	.
*	*	*X8va	*	*
=30	=30	=30	=30	=30
*^	*	*	*	*
*ped	*	*	*	*	*
!	!	!	!LO:TX:b:i:t=rit.:dur=4q:ext=ud:problem:text with extension lines	!	!
4CC'/)	4ryy	3	4r	.	.
!	!	!	!LO:TX:a:i:t=m.g.	!	!
4ddd>:: 4bb-X>::/	4e:: 4d:: 4B-X:: 4G::\	.	4gg:: 4ee:: 4dd:: 4b-X:: 4g::\	4 2	.
2ryy	2B-\	1-2	(4d/	1	.
.	.	.	8qf/	4	.
*Xped	*	*	*	*	*
.	.	.	4e/)	3	.
=31	=31	=31	=31	=31	=31
*	*	*^	*	*	*
*ped	*	*	*	*8va	*	*
4c: 4A:\	2ryy	1	3	24cccc\LL	1	p
.	.	.	.	24dddd\	4	.
.	.	.	.	24cccc\J	3	.
.	.	.	.	24eeee\L	5	.
.	.	.	.	24dddd\	.	.
.	.	.	.	24cccc\JJ	3	.
4FF/	.	.	.	24aaa\LL	1	.
.	.	.	.	24bbb-\	4	.
.	.	.	.	24aaa\J	3	.
*Xped	*	*	*	*	*	*
.	.	.	.	24cccc\L	5	.
.	.	.	.	24bbb-\	.	.
.	.	.	.	24aaa\JJ	.	.
(4d:/	2B-: 2G:\	1	4	24ggg\LL	1	.
.	.	.	.	24aaa\	3	.
.	.	.	.	24ggg\J	2	.
.	.	.	.	24bbb-\L	4	.
.	.	.	.	24aaa\	.	.
.	.	.	.	24ggg\JJ	.	.
*	*	*	*	*X8va	*	*
4e/)	.	1	.	24ddd\LL	1	.
.	.	.	.	24eee\	3	.
.	.	.	.	24ddd\J	2	.
.	.	.	.	24fff\L	4	.
.	.	.	.	24eee\	.	.
.	.	.	.	24ddd\JJ	.	.
!!LO:LB:g=original
=32	=32	=32	=32	=32	=32	=32
*ped	*	*	*	*	*	*
4c 4A\	2ryy	1	3	24ccc\LL	1	.
.	.	.	.	24ddd\	4	.
.	.	.	.	24ccc\J	3	.
.	.	.	.	24eee\L	5	.
.	.	.	.	24ddd\	.	.
.	.	.	.	24ccc\JJ	.	.
4FF/	.	.	.	24aa\LL	1	.
.	.	.	.	24bb-\	4	.
*Xped	*	*	*	*	*	*
.	.	.	.	24aa\J	3	.
.	.	.	.	24ccc\L	5	.
.	.	.	.	24bb-\	.	.
.	.	.	.	24aa\JJ	.	.
(4d:/	2B-: 2E:\	.	.	24gg\LL	1	.
.	.	.	.	24aa\	3	.
.	.	.	.	24gg\J	2	.
.	.	.	.	24bb-\L	4	.
.	.	.	.	24aa\	.	.
.	.	.	.	24gg\JJ	.	.
4e/)	.	.	.	24dd\LL	1	.
.	.	.	.	24ee\	3	.
.	.	.	.	24dd\J	2	.
.	.	.	.	24ff\L	4	.
.	.	.	.	24ee\	.	.
.	.	.	.	24dd\JJ	.	.
*	*	*v	*v	*	*	*
*v	*v	*	*	*	*
=33	=33	=33	=33	=33
*ped	*below	*	*	*
4c: 4A: 4F:\	4	24cc\LL	1	.
.	.	24dd\	4	.
.	.	24cc\J	3	.
.	.	24ee\L	5	.
.	.	24dd\	.	.
.	.	24cc\JJ	.	.
(<4FF/	.	24a/LL	1	.
.	.	24b-/	4	.
.	.	24a/J	3	.
.	.	24cc/L	5	.
.	.	24b-/	.	.
.	.	24a/JJ	.	.
*Xped	*	*	*	*
2A:: 2C::\)	2	24f^::/LL	1	.
.	.	24g/	3	.
.	.	24f/J	2	.
.	.	24a/L	4	.
.	.	24g/	.	.
.	.	24f/JJ	.	.
.	.	24d/LL	1	.
.	.	24e/	3	.
.	.	24d/J	2	.
.	.	24f/L	4	.
.	.	24e/	.	.
.	.	24d/JJ	.	.
!!LO:LB:g=original
=34	=34	=34	=34	=34
1rC	.	24c/LL	1	.
.	.	24d/	4	.
.	.	24c/J	3	.
.	.	24e/L	5	.
.	.	24d/	.	.
.	.	24c/JJ	.	.
.	.	24A</LL	1	.
.	.	24B-</	4	.
.	.	24A</J	3	.
.	.	24c/L	5	.
.	.	24B-</	.	.
.	.	24A</JJ	.	.
*	*Xbelow	*	*	*
.	1	24F</LL	.	.
.	3	24G</	.	.
.	.	24F</J	.	.
.	4	24A</L	.	.
.	.	24G</	.	.
.	.	24F</JJ	.	.
.	1	24D</LL	.	.
.	3	24E</	.	.
.	.	24D</J	.	.
.	4	24F</L	.	.
.	.	24E</	.	.
.	.	24D</JJ	.	.
=35	=35	=35	=35	=35
*	*	*	*below	*
4rDD	1	24C</LL	.	.
.	4	24D</	.	.
.	.	24C</J	.	.
.	.	24E</L	.	.
.	.	24D</	.	.
.	.	24C</JJ	.	.
16AA'\	.	24r	.	.
.	3	24BB-</LL	.	.
16rDD	.	.	.	.
.	2	24AA</J	.	.
8rDD	4	24C</L	.	.
.	.	24BB-</	.	.
.	.	24AA</JJ	.	.
16AA'\	.	24r	.	.
.	.	24BB-</LL	.	.
16rDD	.	.	.	.
.	.	24AA</J	.	.
8rDD	.	24C</L	.	.
.	.	24BB-</	.	.
.	.	24AA</JJ	.	.
16AA'\	.	24r	.	.
.	.	24BB-</LL	.	.
16rDD	.	.	.	.
.	.	24AA</J	.	.
8rDD	.	24C</L	.	.
.	.	24BB-</	.	.
.	.	24AA</JJ	.	.
!!LO:PB:g=original
=36	=36	=36	=36	=36
16AA'<\	.	8ryy	.	.
16rFF	.	.	.	.
8rDD	4	24C</LL	.	.
.	3	24BB-</	.	.
.	2	24AA</JJ	.	.
4r	.	24C</LL	.	.
.	.	24BB-</	.	.
.	.	24AA</J	.	.
.	.	24C</L	.	.
.	.	24BB-</	.	.
.	.	24AA</JJ	.	.
*ped	*below	*	*	*
8AAA'/L	.	4aa 4ee 4cc#X 4a 4g\	1 1	f
24Cn/L	1	.	.	.
24BB-/	2	.	.	.
24AA/JJ	3	.	.	.
*	*	*	*Xbelow	*
24C/LL	.	4ff\	4	.
*Xped	*	*	*	*
24BB-/	.	.	.	.
24AA/J	.	.	.	.
24C/L	.	.	.	.
24BB-/	.	.	.	.
24AA/JJ	.	.	.	.
=37	=37	=37	=37	=37
24r	.	2.a 2.f 2.d/	1 3 5	<
*ped	*Xbelow	*	*	*
24DD/LL	5	.	.	.
24EE/J	.	.	.	.
24FF/L	.	.	.	.
24GG/	.	.	.	.
*	*below	*	*	*
24AA/JJ	1	.	.	.
*	*Xbelow	*	*	*
24BBn\LL	3	.	.	.
24C#X\	.	.	.	.
24D\J	1	.	.	.
24E\L	4	.	.	.
24F\	.	.	.	.
24G\JJ	.	.	.	[
24A\LL	1	.	.	.
24G\	.	.	.	.
24F\J	.	.	.	.
*Xped	*	*	*	*
24E\L	.	.	.	.
24D\	5	.	.	.
24E\JJ	4	.	.	>
24F\LL	3	4f 4d/	2	.
24G\	1	.	.	.
24F\J	2	.	.	.
24E\L	.	.	.	.
24D\	.	.	.	.
[24AA\JJ	5	.	.	]]
!!LO:LB:g=original
=38	=38	=38	=38	=38
24AA\LL]	.	(>4a 4f 4d^>/	3	.
24D\	3	.	.	.
24E\J	.	.	.	.
24F\L	.	.	.	.
24E\	.	.	.	.
24D\JJ	.	.	.	.
24AA\LL	.	4dd 4a 4f 4d/)	5	.
24D\	.	.	.	.
24E\J	.	.	.	.
24F\L	.	.	.	.
24E\	.	.	.	.
24D\JJ	.	.	.	.
24r	.	4ff 4dd 4a\	4	.
*	*below	*	*	*
24AA/LL	3	.	.	.
24BB-X/J	.	.	.	.
24Cn/L	.	.	.	.
24BB-/	.	.	.	.
24AA/JJ	.	.	.	.
24r	.	4aa 4ff 4dd 4a\	5	.
24FF/LL	3	.	.	.
24GG/J	.	.	.	.
24AA/L	.	.	.	.
24GG/	.	.	.	.
24FF/JJ	.	.	.	.
=39	=39	=39	=39	=39
24r	.	2ddd 2aa 2ff 2dd\	.	sf
*ped	*	*	*	*
24DD/LL	3	.	.	.
24EE/J	.	.	.	.
24FF/L	.	.	.	.
24EE/	.	.	.	.
24DD/JJ	.	.	.	.
24CC#X/LL	4	.	.	.
24DD/	.	.	.	.
24EE/J	.	.	.	.
24FF/L	.	.	.	.
24EE/	.	.	.	.
24DD/JJ	.	.	.	.
24r	.	4ddd: 4aa: 4ff#X: 4cc:^\	.	.
24FF#X/LL	3	.	.	.
24GG/J	.	.	.	.
*Xped	*	*	*	*
24AA/L	.	.	.	.
24GG/	.	.	.	.
24FF#/JJ	.	.	.	.
24DD/LL	5	4eee-X^\	5	.
24FF#/	.	.	.	.
24GG/J	.	.	.	.
24AA/L	.	.	.	.
24GG/	.	.	.	.
24FF#/JJ	.	.	.	.
!!LO:LB:g=original
=40	=40	=40	=40	=40
24r	.	2dd 2b- 2g 2d/	.	sf
*ped	*	*	*	*
24GG/LL	3	.	.	.
24AA/J	.	.	.	.
24BB-/L	1	.	.	.
24AA/	.	.	.	.
24GG/JJ	.	.	.	.
24DD/LL	5	.	.	.
24GG/	.	.	.	.
24AA/J	.	.	.	.
24BB-/L	1	.	.	.
24AA/	.	.	.	.
24GG/JJ	.	.	.	.
24r	.	4aa: 4ee-X: 4cc: 4f#X^:\	.	.
*Xped	*	*	*	*
24C/LL	4	.	.	.
24D/J	.	.	.	.
24E-X/L	2	.	.	.
24D/	.	.	.	.
24C/JJ	.	.	.	.
24BBn/LL	5	4bb-X^\	.	.
24C/	.	.	.	.
24D/J	.	.	.	.
24E-/L	.	.	.	.
24D/	.	.	.	.
24C/JJ	.	.	.	.
=41	=41	=41	=41	=41
16r	.	2.dd 2.b- 2.g 2.d/	.	sf
*ped	*	*	*	*
16GGG/	5	.	.	<
24AAA/LL	.	.	.	.
24BBB-X/	.	.	.	.
24CC/JJ	.	.	.	.
24DD/LL	1	.	.	.
24EEn/	3	.	.	.
24FF#X/J	.	.	.	.
24GG/L	1	.	.	.
24AA/	4	.	.	.
24BB-/JJ	.	.	.	[
24C\LL	.	.	.	.
*Xped	*Xbelow	*	*	*
24D\	1	.	.	.
24E\J	3	.	.	.
24F#X\L	.	.	.	.
24G\	1	.	.	.
24A\JJ	4	.	.	.
24B-\LL	.	4b- 4g/	2 3	>]
24c\	.	.	.	.
24d\J	1	.	.	.
24c\L	.	.	.	.
24B-\	.	.	.	.
24A\JJ	4	.	.	.
!!LO:LB:g=original
=42	=42	=42	=42	=42
24r	.	4dd 4b- 4g 4d'/	.	.
24G\LL	4	.	.	.
24A\J	.	.	.	.
24B-\L	2	.	.	.
24A\	.	.	.	.
24G\JJ	.	.	.	.
24r	.	4gg 4dd 4b- 4g'\	.	.
24D\LL	3	.	.	.
24E-X\J	.	.	.	.
24Fn\L	1	.	.	.
24E-\	.	.	.	.
24D\JJ	.	.	.	.
24r	.	4bb- 4gg 4dd 4b-'\	.	.
*	*below	*	*	*
24BB-/LL	3	.	.	.
24C/J	.	.	.	.
24D/L	.	.	.	.
24C/	.	.	.	.
24BB-/JJ	.	.	.	.
24r	.	4ddd 4bb- 4gg 4dd'\	.	.
24AA/LL	3	.	.	.
24BB-/J	.	.	.	.
24C/L	.	.	.	.
24BB-/	.	.	.	.
24AA/JJ	.	.	.	.
=43	=43	=43	=43	=43
24r	.	4ggg 4ddd 4bb- 4gg\	.	sf
*ped	*	*	*	*
24DD/LL	5	.	.	.
24GG/J	.	.	.	.
24BB-/L	.	.	.	.
24D/	1	.	.	.
24G/JJ	3	.	.	.
4B-^\	2	24r	.	.
.	.	24a/LL	3	.
.	.	24g/J	2	.
.	.	24b-/L	4	.
.	.	24a/	.	.
.	.	24g/JJ	.	.
4d^\	1	24r	.	.
.	.	24cc\LL	3	.
.	.	24b-\J	.	.
.	.	24dd\L	4	.
.	.	24cc\	.	.
.	.	24b-\JJ	.	.
4g^\	3	24r	.	.
.	.	24ee-X\LL	3	.
.	.	24dd\J	2	.
.	.	24gg\L	5	.
.	.	24ee-\	.	.
.	.	24dd\JJ	.	.
*clefG2	*	*	*	*
!!LO:LB:g=original
=44	=44	=44	=44	=44
4b-^\	.	24r	.	.
.	.	24aa\LL	3	.
.	.	24gg\J	.	.
.	.	24bb-\L	4	.
.	.	24aa\	.	.
.	.	24gg\JJ	.	.
4dd^\	1	24r	.	.
.	.	24ccc\LL	.	.
.	.	24bb-\J	.	.
.	.	24ddd\L	.	.
.	.	24ccc\	.	.
.	.	24bb-\JJ	.	.
4gg^\	3	24r	.	.
.	.	24eee-X\LL	.	.
.	.	24ddd\J	.	.
.	.	24ggg\L	.	.
.	.	24eee-\	.	.
.	.	24ddd\JJ	.	.
4bb-^\	.	24r	.	.
*	*	*8va	*	*
.	.	24aaa\LL	.	.
.	.	24ggg\J	.	.
.	.	24bbb-\L	.	.
.	.	24aaa\	.	.
.	.	24ggg\JJ	.	.
=45	=45	=45	=45	=45
4ddd^\	1	24r	.	.
.	.	24cccc\LL	3	.
.	.	24bbb-\J	2	.
.	.	24dddd\L	5	.
.	.	24cccc\	3	.
.	.	24bbb-\JJ	2	.
4r	.	24ggg\LL	1	.
.	.	24aaa\	3	.
.	.	24ggg\J	.	.
.	.	24bbb-\L	4	.
.	.	24aaa\	.	.
!	!	!	!	!LO:HP:t=dim.
.	.	24ggg\JJ	.	>
*	*	*X8va	*	*
4b-: 4d: 4G':/	.	24ddd\LL	1	.
.	.	24eee-X\	3	.
.	.	24ddd\J	2	.
*Xped	*	*	*	*
.	.	24fff\L	5	.
.	.	24eee-\	3	.
.	.	24ddd\JJ	1	.
4r	.	24bb-\LL	2	.
.	.	24ccc\	.	.
.	.	24bb-\J	2	.
.	.	24ddd\L	5	.
.	.	24ccc\	3	.
.	.	24bb-\JJ	.	.
!!LO:LB:g=original
=46	=46	=46	=46	=46
2r	.	24gg\LL	1	p
.	.	24ccc\	3	.
.	.	24bb-\J	.	.
.	.	24ddd\L	4	.
.	.	24ccc\	.	.
.	.	24bb-\JJ	.	.
.	.	24gg\LL	.	.
.	.	24ccc\	.	.
.	.	24bb-\J	.	.
.	.	24ddd\L	.	.
.	.	24ccc\	.	.
.	.	24bb-\JJ	.	.
2ff^\	.	24gg\LL	1	.
.	.	24ccc\	3	.
.	.	24bb-\J	.	.
.	.	24ddd-X\L	4	.
.	.	24ccc\	.	.
.	.	24bb-\JJ	.	.
.	.	24gg\LL	.	.
.	.	24ccc\	.	.
.	.	24bb-\J	.	.
.	.	24ddd-\L	.	.
.	.	24ccc\	.	.
.	.	24bb-\JJ	.	.
=47	=47	=47	=47	=47
*^	*	*^	*	*
*ped	*	*	*	*	*	*
2ee\	2ryy	.	24gg\LL	2ryy	1	.
.	.	.	24ccc\	.	3	.
.	.	.	24bb-\J	.	.	.
.	.	.	24ddd-X\L	.	4	.
.	.	.	24ccc\	.	.	.
*	*	*	*8va	*	*	*
.	.	.	24bbb-\JJ	.	.	.
.	.	.	24ggg\LL	.	1	.
.	.	.	24cccc\	.	3	.
.	.	.	24bbb-\J	.	.	.
.	.	.	24dddd-\L	.	4	.
.	.	.	24cccc\	.	.	.
.	.	.	24bbb-\JJ	.	.	.
*	*	*	*X8va	*	*	*
2ee: 2b-:/	4c:\	.	24gg/LL	4gg^\	1	.
.	.	.	24ccc/	.	.	.
.	.	.	24bb-/J	.	.	.
*Xped	*	*	*	*	*	*
.	.	.	24ddd-/L	.	.	.
.	.	.	24ccc/	.	.	.
.	.	.	24bb-/JJ	.	.	.
.	4r	.	24aa/LL	4aa^\	1	.
.	.	.	24ccc/	.	.	.
.	.	.	24bb-/J	.	.	.
.	.	.	24ddd-/L	.	.	.
.	.	.	24ccc/	.	.	.
.	.	.	24bb-/JJ	.	.	.
!!LO:PB:g=original
=48	=48	=48	=48	=48	=48	=48
*	*	*^	*	*	*	*
*ped	*	*	*	*	*	*	*
2cc 2a/	(4f\	.	3	24r	2ryy	.	.
.	.	.	.	24bb-\LL	.	4	.
.	.	.	.	24aa\J	.	.	.
.	.	.	.	24ccc\L	.	.	.
.	.	.	.	24bb-\	.	.	.
.	.	.	.	24aa\JJ	.	.	.
*	*	*	*	*8va	*	*	*
.	4e\)	.	4	24fff\LL	.	1	.
.	.	.	.	24bbb-\	.	4	.
.	.	.	.	24aaa\J	.	.	.
*Xped	*	*	*	*	*	*	*
.	.	.	.	24cccc\L	.	.	.
.	.	.	.	24bbb-\	.	.	.
.	.	.	.	24aaa\JJ	.	.	.
*	*	*	*	*X8va	*	*	*
2a 2dn 2B-/	2ryy	.	4 5	24ff/LL	4ff^\	1	.
.	.	.	.	24bb-/	.	4	.
.	.	.	.	24aa/J	.	.	.
.	.	.	.	24ccc/L	.	.	.
.	.	.	.	24bb-/	.	.	.
.	.	.	.	24aa/JJ	.	.	.
.	.	.	.	24gg/LL	4gg^\	1	.
.	.	.	.	24bb-/	.	4	.
.	.	.	.	24aa/J	.	.	.
.	.	.	.	24ccc/L	.	.	.
.	.	.	.	24bb-/	.	.	.
.	.	.	.	24aa/JJ	.	.	.
=49	=49	=49	=49	=49	=49	=49	=49
2b- 2g/	(4e	.	3	24r	2ryy	.	.
*	*	*	*	*8va	*	*	*
.	.	.	.	24aaa\LL	.	3	.
.	.	.	.	24ggg\J	.	.	.
.	.	.	.	24bbb-\L	.	4	.
.	.	.	.	24aaa\	.	.	.
.	.	.	.	24ggg\JJ	.	.	.
*	*	*	*	*X8va	*	*	*
.	4d)	.	4	24eee\LL	.	1	.
.	.	.	.	24fff\	.	4	.
.	.	.	.	24eee\J	.	3	.
.	.	.	.	24ggg\L	.	5	.
.	.	.	.	24fff\	.	.	.
.	.	.	.	24eee\JJ	.	.	.
2g: 2c#X: 2A:/	2ryy	.	4 5	24ee/LL	4ee^\	1	.
.	.	.	.	24ddd/	.	4	.
.	.	.	.	24ccc#X/J	.	3	.
.	.	.	.	24eee/L	.	5	.
.	.	.	.	24ddd/	.	.	.
.	.	.	.	24ccc#/JJ	.	.	.
.	.	.	.	24ff/LL	4ff^\	1	.
.	.	.	.	24bb-/	.	4	.
.	.	.	.	24aa/J	.	3	.
.	.	.	.	24cccn/L	.	5	.
.	.	.	.	24bb-/	.	.	.
.	.	.	.	24aa/JJ	.	.	.
!!LO:LB:g=original
=50	=50	=50	=50	=50	=50	=50	=50
4a^/	2f 2d\	1	2 3	24r	2ryy	.	.
.	.	.	.	24gg\LL	.	4	.
.	.	.	.	24ff\J	.	3	.
.	.	.	.	24aa\L	.	5	.
.	.	.	.	24gg\	.	.	.
.	.	.	.	24ff\JJ	.	3	.
4cc#X^/	.	1	.	24r	.	.	.
.	.	.	.	24gg\LL	.	.	.
.	.	.	.	24ff\J	.	.	.
.	.	.	.	24aa\L	.	.	.
.	.	.	.	24gg\	.	.	.
.	.	.	.	24ff\JJ	.	.	.
2ryy	2cn/	.	4	24dd/LL	4dd^\	1	.
.	.	.	.	24gg/	.	4	.
.	.	.	.	24ff/J	.	.	.
.	.	.	.	24aa/L	.	.	.
.	.	.	.	24gg/	.	.	.
.	.	.	.	24ff/JJ	.	.	.
.	.	.	.	24ee/LL	4ee^\	1	.
.	.	.	.	24gg/	.	4	.
.	.	.	.	24ff/J	.	.	.
.	.	.	.	24aa/L	.	.	.
.	.	.	.	24gg/	.	.	.
.	.	.	.	24ff/JJ	.	.	.
*clefF4	*	*	*	*	*	*	*
*	*	*	*	*v	*v	*	*
=51	=51	=51	=51	=51	=51	=51
*ped	*	*	*	*	*	*
2f: 2d: 2Bn:\	2ryy	1	3 5	24dd\LL	1	<
.	.	.	.	24ff\	.	.
.	.	.	.	24gg#X\J	.	.
.	.	.	.	24ddd\L	1	.
.	.	.	.	24fff\	.	.
.	.	.	.	24ggg#X\JJ	3	[
*	*	*	*	*8va	*	*
.	.	.	.	24dddd\LL	5	>
*	*	*	*	*X8va	*	*
.	.	.	.	24ggg#\	3	.
.	.	.	.	24fff\J	.	.
.	.	.	.	24ddd\L	1	.
.	.	.	.	24gg#\	3	.
.	.	.	.	24ff\JJ	.	]
(4c#X:/	2f: 2cn: 2A:\	.	1 3 4 5	24dd\LL	.	.
*Xped	*	*	*	*	*	*
.	.	.	.	24ggn\	.	.
.	.	.	.	24ff\J	.	.
.	.	.	.	24cccn\L	.	.
.	.	.	.	24gg\	.	.
.	.	.	.	24ff\JJ	.	.
[4d/	.	.	2	24dd\LL	.	.
.	.	.	.	24gg\	.	.
.	.	.	.	24ff\J	.	.
.	.	.	.	24ccc\L	.	.
.	.	.	.	24gg\	.	.
.	.	.	.	24ff\JJ	.	.
!!LO:LB:g=original
=52	=52	=52	=52	=52	=52	=52
*ped	*	*	*	*	*	*
2f 2d] 2Bn 2G#X\)	2ryy	.	4 5	24dd\LL	1	<
.	.	.	.	24ff\	.	.
.	.	.	.	24bbn\J	4	.
.	.	.	.	24ddd\L	1	.
.	.	.	.	24fff\	.	.
*	*	*	*	*8va	*	*
.	.	.	.	24bbb\JJ	4	[
.	.	.	.	24dddd\LL	5	>
.	.	.	.	24bbb\	4	.
*	*	*	*	*X8va	*	*
.	.	.	.	24fff\J	2	.
.	.	.	.	24ddd\L	1	.
.	.	.	.	24bb\	4	.
.	.	.	.	24ff\JJ	.	]
*Xped	*	*	*	*	*	*
4e:/	2d: 2c:\	2	4	24dd\LL	.	.
.	.	.	.	24ff\	.	.
.	.	.	.	24aa\J	3	.
.	.	.	.	24ddd\L	.	.
.	.	.	.	24aa\	.	.
.	.	.	.	24ff\JJ	.	.
[4f/	.	1	.	24dd\LL	.	.
.	.	.	.	24ff\	.	.
.	.	.	.	24bb\J	4	.
.	.	.	.	24ddd\L	.	.
.	.	.	.	24bb\	.	.
.	.	.	.	24ff\JJ	.	.
=53	=53	=53	=53	=53	=53	=53
*	*	*	*	*^	*	*
2f] 2d 2Bn\	2ryy	.	3 5	24dd\LL	2ryy	.	.
.	.	.	.	24ff\	.	.	.
.	.	.	.	24aa\J	.	3	.
.	.	.	.	24ddd\L	.	.	.
.	.	.	.	24aa\	.	.	.
.	.	.	.	24ff\JJ	.	.	.
.	.	.	.	24dd\LL	.	.	.
.	.	.	.	24ff\	.	.	.
.	.	.	.	24gg#X\J	.	.	.
.	.	.	.	24ddd\L	.	.	.
.	.	.	.	24gg#\	.	.	.
.	.	.	.	24ff\JJ	.	.	.
(4c#X/	2f 2cn 2A\	.	1 3 4 5	8ryy	24dd\LL	.	.
.	.	.	.	.	24ggn\	.	.
.	.	.	.	.	24ff\J	.	.
.	.	.	.	16ddd/	24ddd\L	.	.
.	.	.	.	.	24gg\	.	.
.	.	.	.	16ryy	.	.	.
.	.	.	.	.	24ff\JJ	.	.
4d/)	.	2	.	8ryy	24dd\LL	.	.
.	.	.	.	.	24gg\	.	.
.	.	.	.	.	24ff\J	.	.
.	.	.	.	16cccn/	24ccc\L	.	.
.	.	.	.	.	24gg\	.	.
.	.	.	.	16ryy	.	.	.
.	.	.	.	.	24ff\JJ	.	.
*	*	*v	*v	*	*	*	*
!!LO:LB:g=original
=54	=54	=54	=54	=54	=54	=54
4A-X/	1A-	.	8ryy	24dd\LL	.	.
.	.	.	.	24gg\	.	.
.	.	.	.	24ff\J	.	.
.	.	.	16ccc/	24ccc\L	.	.
.	.	.	.	24gg\	.	.
.	.	.	16ryy	.	.	.
.	.	.	.	24ff\JJ	.	.
*ped	*	*	*	*	*	*
4d/	.	.	24ddyyyy	24dd\LL	1	<
.	.	.	24ryy	24ff\	.	.
.	.	.	24ccc-X/	24ccc-\J	.	.
.	.	.	8ryy	24ddd\L	1	.
.	.	.	.	24fff\	.	.
*	*	*	*	*8va	*	*
.	.	.	.	24cccc-\JJ	4	[
4f/	.	.	4ryy	24dddd\LL	5	>
.	.	.	.	24cccc-\	4	.
*	*	*	*	*X8va	*	*
.	.	.	.	24fff\J	2	.
.	.	.	.	24ddd\L	1	.
.	.	.	.	24ccc-\	4	.
.	.	.	.	24ff\JJ	.	]
*Xped	*	*	*	*	*	*
4b-/	.	.	24dd/LL	4dd\	.	.
.	.	.	24ff/	.	.	.
.	.	.	24bb-/J	.	.	.
.	.	.	24ddd/L	.	.	.
.	.	.	24bb-/	.	.	.
.	.	.	24ff/JJ	.	.	.
*v	*v	*	*	*	*	*
=55	=55	=55	=55	=55	=55
*ped	*Xbelow	*	*	*	*
4B- 4G\	5 4	24ee-X/LL	4ee-\	1	.
.	.	24cccn/	.	3	.
.	.	24bb-/J	.	.	.
.	.	24eee-X/L	.	.	.
.	.	24ccc/	.	.	.
.	.	24bb-/JJ	.	.	.
*	*below	*8va	*	*	*
4GG/	5	24bb-/LL	4bb-\	.	.
.	.	24fff/	.	.	.
.	.	24eee-/J	.	.	.
.	.	24bbb-/L	.	.	.
.	.	24fff/	.	.	.
.	.	24eee-/JJ	.	.	.
*	*	*X8va	*	*	*
4BB-/	5	24gg/LL	4gg\	.	.
.	.	24ccc/	.	.	.
.	.	24bb-/J	.	.	.
.	.	24ggg/L	.	.	.
.	.	24ccc/	.	.	.
.	.	24bb-/JJ	.	.	.
*	*Xbelow	*	*	*	*
4G\	1	24ff/LL	4ff\	.	.
.	.	24ccc/	.	.	.
.	.	24bb-/J	.	.	.
.	.	24fff/L	.	.	.
.	.	24ccc/	.	.	.
.	.	24bb-/JJ	.	.	.
!!LO:LB:g=original
=56	=56	=56	=56	=56	=56
*^	*^	*	*	*	*
4B-\	2ryy	4	.	24ee-X/LL	4ee-\	.	.
.	.	.	.	24ccc/	.	.	.
.	.	.	.	24bb-/J	.	.	.
*Xped	*	*	*	*	*	*	*
.	.	.	.	24eee-X/L	.	.	.
.	.	.	.	24ccc/	.	.	.
.	.	.	.	24bb-/JJ	.	.	.
4g\	.	.	.	24dd/LL	4dd\	1	.
.	.	.	.	24ccc/	.	3	.
.	.	.	.	24bb-/J	.	2	.
.	.	.	.	24ddd/L	.	5	.
.	.	.	.	24ccc/	.	3	.
.	.	.	.	24bb-/JJ	.	2	.
4en:^/	2An: 2G:\	1	4 5	24cc#/LL	4cc#X\	1	.
.	.	.	.	24bb-/	.	4	.
.	.	.	.	24aa/J	.	.	.
.	.	.	.	24ccc#X/L	.	.	.
.	.	.	.	24bb-/	.	.	.
.	.	.	.	24aa/JJ	.	.	.
4f^/	.	1	.	24cc#/LL	4cc#\	.	.
.	.	.	.	24bb-/	.	.	.
.	.	.	.	24aa/J	.	.	.
.	.	.	.	24ccc#/L	.	.	.
.	.	.	.	24bb-/	.	.	.
.	.	.	.	24aa/JJ	.	.	.
*	*	*v	*v	*	*	*	*
*v	*v	*	*	*	*	*
=57	=57	=57	=57	=57	=57
*ped	*	*	*	*	*
4A-X 4F\	5 4	24dd-X/LL	4dd-\	1	.
.	.	24bb-/	.	4	.
.	.	24aa-X/J	.	3	.
.	.	24ddd-X/L	.	5	.
.	.	24bb-/	.	.	.
.	.	24aa-/JJ	.	.	.
4FF/	5	24r	4ryy	.	.
*	*	*8va	*	*	*
.	.	24bbb-\LL	.	3	.
.	.	24aaa-\J	.	2	.
.	.	24ccccn\L	.	5	.
.	.	24bbb-\	.	3	.
.	.	24aaa-\JJ	.	.	.
*	*	*X8va	*	*	*
4AA-X/	.	24fff\LL	2ryy	1	.
*Xped	*	*	*	*	*
.	.	24ggg-X\	.	3	.
.	.	24fff\J	.	2	.
.	.	24aaa-X\L	.	4	.
.	.	24ggg-\	.	3	.
.	.	24fff\JJ	.	1	.
4F\	1	24ddd-\LL	.	2	.
.	.	24eee-X\	.	3	.
.	.	24ddd-\J	.	.	.
.	.	24fff\L	.	5	.
.	.	24eee-\	.	3	.
.	.	24ddd-\JJ	.	.	.
!!LO:LB:g=original
=58	=58	=58	=58	=58	=58
*^	*^	*	*	*	*
2A-X\	2ryy	.	.	24aa-X\LL	4ryy	1	.
.	.	.	.	24bb-\	.	3	.
.	.	.	.	24aa-\J	.	2	.
.	.	.	.	24ccc\L	.	5	.
.	.	.	.	24bb-\	.	3	.
.	.	.	.	24aa-\JJ	.	2	.
.	.	.	.	24dd-X/LL	4dd-\	.	.
.	.	.	.	24bb-/	.	.	.
.	.	.	.	24aa-/J	.	.	.
.	.	.	.	24ddd-X/L	.	.	.
.	.	.	.	24bb-/	.	.	.
.	.	.	.	24aa-/JJ	.	.	.
4dn:^/	2Gn: 2F:\	1	4 5	24cc/LL	4cc\	1	.
.	.	.	.	24aa-/	.	4	.
.	.	.	.	24ggn/J	.	.	.
.	.	.	.	24ccc/L	.	.	.
.	.	.	.	24bb-/	.	.	.
.	.	.	.	24gg/JJ	.	.	.
4e-X^\	.	1	.	24bn/LL	4b\	.	.
.	.	.	.	24aa-/	.	.	.
.	.	.	.	24gg/J	.	.	.
.	.	.	.	24bbn/L	.	.	.
.	.	.	.	24aa-/	.	.	.
.	.	.	.	24gg/JJ	.	.	.
*v	*v	*	*	*	*	*	*
=59	=59	=59	=59	=59	=59	=59
*ped	*	*	*	*	*	*
4G-X 4E-X\	4	5	24ee-X/LL	4ee-X\	1	.
.	.	.	24aa-X/	.	4	.
.	.	.	24gg-X/J	.	.	.
.	.	.	24ccc-X/L	.	.	.
.	.	.	24aa-/	.	.	.
.	.	.	24gg-/JJ	.	.	.
4EE-X/	5	.	24cc\LL	4ryy	1	.
.	.	.	24dd-X\	.	.	.
.	.	.	24ee-X\J	.	.	.
.	.	.	24ff-X\L	.	1	.
.	.	.	24gg-\	.	.	.
.	.	.	24aa-\JJ	.	.	.
4GG-X/	.	.	24bb-\LL	2ryy	.	.
.	.	.	24ccc-\	.	1	.
.	.	.	24ddd-X\J	.	.	.
.	.	.	24eee-X\L	.	.	.
.	.	.	24fff-X\	.	1	.
*Xped	*	*	*	*	*	*
.	.	.	24ggg-X\JJ	.	.	.
4E-\	1	.	24aaa-X\LL	.	3	.
*	*	*	*8va	*	*	*
.	.	.	24bbb-\	.	4	.
.	.	.	24cccc-\J	.	5	.
.	.	.	24bbb-\L	.	4	.
*	*	*	*X8va	*	*	*
.	.	.	24aaa-\	.	3	.
.	.	.	24ggg-\JJ	.	.	.
!!LO:PB:g=original
=60	=60	=60	=60	=60	=60	=60
*^	*	*	*	*	*	*
4G-X\	2ryy	3	.	24fff-X\LL	2ryy	.	.
.	.	.	.	24eee-X\	.	.	.
.	.	.	.	24ddd-X\J	.	.	.
.	.	.	.	24ccc-X\L	.	.	.
.	.	.	.	24bb-\	.	.	.
.	.	.	.	24aa-X\JJ	.	.	.
4c-X\	.	.	.	24gg-X\LL	.	.	.
.	.	.	.	24ff-X\	.	.	.
.	.	.	.	24ee-X\J	.	.	.
.	.	.	.	24dd-X\L	.	.	.
.	.	.	.	24cc-X\	.	.	.
.	.	.	.	24b-\JJ	.	.	.
.	(8qFFn/	.	.	.	.	.	.
*ped	*	*	*	*	*	*	*
4cn^/	[2Fn 2E-X\)	1	4	24a/LL	4an\	1	.
.	.	.	.	24gg-/	.	4	.
.	.	.	.	24ffn/J	.	.	.
*Xped	*	*	*	*	*	*	*
.	.	.	.	24aan/L	.	.	.
.	.	.	.	24gg-/	.	.	.
.	.	.	.	24ff/JJ	.	3	.
4c#X^/	.	1	.	24ff/LL	4ff\	1	.
.	.	.	.	24bb-/	.	3	.
.	.	.	.	24aa/J	.	.	.
.	.	.	.	8fff-'/J	.	.	.
*	*	*v	*v	*	*	*	*
*v	*v	*	*	*	*	*
*	*	*v	*v	*	*
=61	=61	=61	=61	=61
*ped	*	*	*	*
4dn 4F] 4Dn\	.	24fff\LL	1	.
.	.	24gggn\	4	.
.	.	24fff\J	3	.
.	.	24aaan\L	5	.
.	.	24ggg\	.	.
.	.	24fff\JJ	.	.
4BBB-/	.	24dddn\LL	1	.
.	.	24eee-X\	2	.
.	.	24ddd\J	1	.
*Xped	*	*	*	*
.	.	24fff\L	3	.
.	.	24eee-\	.	.
.	.	24ddd\JJ	1	.
*	*below	*	*	*
4e-X 4F 4E-X\	3	24eee-\LL	2	.
.	.	24fff\	.	.
.	.	24eee-\J	.	.
.	.	24ggg-X\L	4	.
.	.	24fff\	.	.
.	.	24eee-\JJ	.	.
4AA/	.	24ccc-X\LL	1	.
.	.	24ddd-X\	3	.
.	.	24ccc-\J	1	.
.	.	24eee-\L	4	.
.	.	24ddd-\	3	.
.	.	24ccc-\JJ	1	.
!!LO:LB:g=original
=62	=62	=62	=62	=62
*^	*	*	*	*
4dn 4F 4Dn\	2ryy	.	24bb-\LL	2	.
.	.	.	24cccn\	.	.
.	.	.	24bb-\J	.	.
.	.	.	24fff\L	5	.
.	.	.	24dddn\	4	.
.	.	.	24bb-\JJ	.	.
*	*	*Xbelow	*	*	*
4BB-/	.	5	24ff\LL	1	.
.	.	.	24ggn\	2	.
.	.	.	24ff\J	1	.
.	.	.	24ddd\L	5	.
.	.	.	24bb-\	4	.
.	.	.	24ff\JJ	1	.
4C-X/	2C-\	5	24een\LL	2	.
.	.	.	24ff\	3	.
.	.	.	24ee\J	1	.
.	.	.	24aa\L	5	.
.	.	.	24ff\	3	.
.	.	.	24ee\JJ	1	.
4A 4F/	.	.	24ee-X\LL	2	.
.	.	.	24ff\	.	.
.	.	.	24ee-\J	.	.
.	.	.	24gg-X\L	4	.
.	.	.	24ff\	.	.
.	.	.	24ee-\JJ	.	.
=63	=63	=63	=63	=63	=63
*	*	*	*^	*	*
*ped	*	*	*	*	*	*
24BB-/LL	4BB-\	.	24b-/LL	4b-\	1	.
24D/	.	.	24gg-X/	.	4	.
24E-X/J	.	.	24ff/J	.	.	.
24F/L	.	.	24bb-/L	.	.	.
24E-/	.	.	24gg-/	.	.	.
24D/JJ	.	.	24ff/JJ	.	.	.
24BB-/LL	4BB-\	.	24b-/LL	4b-\	.	.
24D/	.	.	24gg-/	.	.	.
24E-/J	.	.	24ff/J	.	.	.
24F/L	.	.	24bb-/L	.	.	.
*Xped	*	*	*	*	*	*
24E-/	.	.	24gg-/	.	.	.
24D/JJ	.	.	24ff/JJ	.	.	.
24BB-/LL	4BB-\	.	24b-/LL	4b-\	.	.
24D/	.	.	24gg-/	.	.	.
24E-/J	.	.	24ff/J	.	.	.
24F/L	.	.	24bb-/L	.	.	.
24E-/	.	.	24gg-/	.	.	.
24D/JJ	.	.	24ff/JJ	.	.	.
24BB-/LL	4BB-\	.	24b-/LL	4b-\	.	.
24D/	.	.	24gg-/	.	.	.
24E-/J	.	.	24ff/J	.	.	.
24F/L	.	.	24bb-/L	.	.	.
24E-/	.	.	24gg-/	.	.	.
24D/JJ	.	.	24ff/JJ	.	.	.
!!LO:LB:g=original
=64	=64	=64	=64	=64	=64	=64
24BB-/LL	4BB-\	.	24a/LL	4a\	1	.
24D/	.	.	24gg-X/	.	4	.
24E-X/J	.	.	24ff/J	.	.	.
24F/L	.	.	24aa/L	.	.	.
24E-/	.	.	24gg-/	.	.	.
24D/JJ	.	.	24ff/JJ	.	.	.
24BB-/LL	4BB-\	.	24a/LL	4a\	.	.
24D/	.	.	24gg-/	.	.	.
24E-/J	.	.	24ff/J	.	.	.
24F/L	.	.	24aa/L	.	.	.
24E-/	.	.	24gg-/	.	.	.
24D/JJ	.	.	24ff/JJ	.	.	.
24BB-/LL	4BB-\	.	24g#/LL	4g#X\	1	.
24D/	.	.	24ff/	.	4	.
24En/J	.	.	24een/J	.	.	.
24F/L	.	.	24gg#X/L	.	.	.
24E/	.	.	24ff/	.	.	.
24D/JJ	.	.	24ee/JJ	.	.	.
24BB-/LL	4BB-\	.	24g#/LL	4g#\	.	.
24D/	.	.	24ff/	.	.	.
24E/J	.	.	24ee/J	.	.	.
24F/L	.	.	24gg#/L	.	.	.
24E/	.	.	24ff/	.	.	.
24D/JJ	.	.	24ee/JJ	.	.	.
=65	=65	=65	=65	=65	=65	=65
*ped	*	*	*	*	*	*
24AA/LL	4AA\	.	24a/LL	4a\	1	<
24C#X/	.	.	24ff/	.	3	.
24D/J	.	.	24ee/J	.	.	.
24E/L	.	.	24aa/L	.	.	.
24D/	.	.	24ff/	.	.	.
24C#/JJ	.	.	24ee/JJ	.	.	.
24AA/LL	4AA\	.	24b-/LL	4b-\	.	.
24D/	.	.	24ggn/	.	.	.
24E/J	.	.	24ff/J	.	.	.
24F/L	.	.	24bb-/L	.	.	.
24E/	.	.	24gg/	.	.	.
24D/JJ	.	.	24ff/JJ	.	.	.
24AA/LL	4AA\	.	24bn/LL	4b\	.	.
24D#X/	.	.	24gg/	.	.	.
*Xped	*	*	*	*	*	*
24E/J	.	.	24ff#X/J	.	.	.
24F#X/L	.	.	24bbn/L	.	.	.
24E/	.	.	24gg/	.	.	.
24D#/JJ	.	.	24ff#/JJ	.	.	.
24AA/LL	4AA\	.	24cc/LL	4ccn\	.	.
24E/	.	.	24aa/	.	.	.
24F#/J	.	.	24gg/J	.	.	.
24G/L	.	.	24ccc/L	.	.	.
24F#/	.	.	24aa/	.	.	.
24E/JJ	.	.	24gg/JJ	.	.	.
!!LO:LB:g=original
=66	=66	=66	=66	=66	=66	=66
*ped	*	*	*	*	*	*
24AA/LL	4AA\	.	24cc#X/LL	4cc#\	.	.
24E/	.	.	24aa/	.	.	.
24Fn/J	.	.	24gg/J	.	.	.
8G/J	.	.	24ccc#X/L	.	.	.
.	.	.	24aa/	.	.	.
.	.	.	24gg/JJ	.	.	.
24C#X/LL	4C#\	.	24ee/LL	4ee\	.	.
24G/	.	.	24cccn/	.	.	.
24A/J	.	.	24bb-X/J	.	.	.
8B-/J	.	.	24eee/L	.	.	.
.	.	.	24ccc/	.	.	.
.	.	.	24bb-/JJ	.	.	.
*	*	*below	*	*	*	*
24E/LL	4E\	5	24gg/LL	4gg\	.	.
24B-/	.	3	24ddd/	.	.	.
24cn/J	.	2	24ccc#X/J	.	.	.
8c#X/J	.	1	24ggg/L	.	.	.
.	.	.	24ddd/	.	.	.
.	.	.	24ccc#/JJ	.	.	.
*	*	*	*8va	*	*	*
24G/LL	4G\	.	24bb-/LL	4bb-\	.	.
24c#X/	.	.	24fffn/	.	.	.
24d/J	.	.	24eee/J	.	.	.
8e/J	.	.	24bbb-/L	.	.	.
.	.	.	24fff/	.	.	.
.	.	.	24eee/JJ	.	.	.
=67	=67	=67	=67	=67	=67	=67
24B-/LL	4B-\	5	24ccc#X/LL	4ccc#\	.	.
24e/	.	.	24aaa/	.	.	.
24f/J	.	.	24ggg/J	.	.	.
8g/J	.	1	24cccc#X/L	.	.	.
.	.	.	24aaa/	.	.	.
.	.	.	24ggg/JJ	.	.	.
*clefG2	*	*	*	*	*	*
24c#X/LL	4c#\	5	24eee\LL	4ryy	.	.
24g/	.	3	24fff\	.	.	.
24a/J	.	2	24fff#X\J	.	.	.
*Xped	*	*	*	*	*	*
8b-/J	.	1	24ggg\L	.	.	.
.	.	.	24ggg#X\	.	.	.
.	.	.	24aaa\JJ	.	.	.
24e/LL	4e\	5	24bbb-\LL	2ryy	.	.
24b-X/	.	3	24bbbn\	.	.	.
24ccn/J	.	2	24ccccn\J	.	.	.
8cc#X/J	.	1	24cccc#X\L	.	.	.
.	.	.	24dddd\	.	.	.
.	.	.	24dddd#X\JJ	.	.	.
24g/LL	4gn\	.	24eeee\LL	.	.	.
24cc#/	.	.	24ffffn\	.	.	.
24ddn/J	.	.	24ffff#X\J	.	.	.
8ee/J	.	.	24ggggn\L	.	5	.
.	.	.	24eeee\	.	3	.
.	.	.	24cccc#\JJ	.	2	.
*	*	*	*v	*v	*	*
!!LO:LB:g=original
=68	=68	=68	=68	=68	=68
24g#X/LL	4g#\	.	24ddddn\LL	1	.
24dd/	.	.	24eeee-X\	3	.
24ee/J	.	.	24eeeen\J	.	.
8ff/J	.	.	24ffffn\L	5	.
.	.	.	24dddd\	3	.
.	.	.	24bbbn\JJ	1	.
*	*	*	*X8va	*	*
4bn/	4ryy	.	24ggg#X\LL	4	.
.	.	.	24fff\	.	.
.	.	.	24ddd\J	.	.
.	.	.	24bb\L	1	.
.	.	.	24gg#X\	4	.
.	.	.	24ff\JJ	.	.
4r	2ryy	.	24dd\LL	.	.
.	.	.	24bn\	1	.
.	.	.	24g#X\J	4	.
.	.	.	24f\L	.	.
.	.	.	24d\	.	.
*	*	*	*clefF4	*	*
.	.	.	24Bn\JJ	1	.
*clefF4	*	*	*	*	*
!	!	!	!LO:TX:t=P:problem=mixed beam	!	!
4ryy	.	.	24G#X\LL	4	.
.	.	.	24F\	.	.
.	.	.	24D\J	.	.
.	.	.	24BBn\L	1	.
.	.	.	24GG#X\	2	.
.	.	1	24FF</JJ	.	.
*v	*v	*	*	*	*
=69	=69	=69	=69	=69
*ped	*Xbelow	*	*	*
24AAA^;/LL	5	4r	.	f
24BBBn/	.	.	.	.
24CC#X/J	.	.	.	.
24DD/L	.	.	.	.
24EE/	.	.	.	.
24FF#X/JJ	.	.	.	.
!	!	!LO:TX:t=P:problem=mixed beam	!	!
4ryy	.	24GG#</LL	.	.
.	.	24AA\	1	<
.	.	24BBn\J	.	.
*Xped	*	*	*	*
.	.	24C#X\L	.	.
.	.	24D\	.	.
.	.	24E\JJ	.	.
2r	.	24F#X\LL	.	.
.	.	24G#X\	.	.
.	.	24A\J	.	.
.	.	24Bn\L	.	.
.	.	24c#X\	.	.
.	.	24d\JJ	.	.
.	.	24e\LL	.	[
.	.	24f#X\	.	>
.	.	24g#X\J	.	.
.	.	24a\L	5	.
.	.	24e\	3	.
.	.	24c#\JJ	2	]]
!!LO:LB:g=original
=70	=70	=70	=70	=70
*ped	*	*	*	*
24EE^;/LL	5	4r	.	.
24FF#X/	.	.	.	.
24GG#X/J	.	.	.	.
24AA/L	.	.	.	.
24BBn/	.	.	.	.
24C#X/JJ	.	.	.	.
*Xped	*	*	*	*
!	!	!LO:TX:t=P:problem=mixed beam	!	!
4ryy	.	24D</LL	.	.
.	.	24E\	.	<
.	.	24F#X\J	.	.
.	.	24G#X\L	.	.
.	.	24A\	.	.
.	.	24Bn\JJ	.	.
*	*	*clefG2	*	*
2r	.	24c#X/LL	.	.
.	.	24d/	.	.
.	.	24e/J	.	.
.	.	24f#X/L	.	.
.	.	24g#X/	.	.
.	.	24a/JJ	.	[
.	.	24bn\LL	.	>
.	.	24cc#X\	.	.
.	.	24dd\J	.	.
.	.	24ee\L	.	.
.	.	24cc#\	.	.
.	.	24a\JJ	.	]]
*clefG2	*	*	*	*
=71	=71	=71	=71	=71
*	*below	*	*	*
!	!	!LO:TX:t=P:problem=mixed beam	!	!
2ryy	1	24ccc#X<^<;</LL	.	.
.	.	24ddd\	4	.
.	.	24ccc#X\J	.	.
.	.	24bbn\L	.	.
.	.	24aa\	.	.
.	.	24gg#X\JJ	.	.
.	.	24ff#X\LL	.	.
.	.	24ee\	.	.
.	.	24dd\J	.	.
.	.	24cc#X\L	.	.
.	.	24bn\	.	.
.	.	24a\JJ	.	.
!	!	!LO:TX:t=P:problem=mixed beam	!	!
4ryy	1	24g#X<'</LL	.	.
.	.	24a\	1	.
.	.	24b\J	2	.
.	.	24b#X\L	3	.
.	.	24dd\	5	.
.	.	24cc#\JJ	4	.
*ped	*	*	*	*
*clefF4	*	*	*	*
!	!	!LO:TX:t=P:problem=mixed beam	!	!
4ryy	.	24a\LL	2	.
.	.	24e\	1	.
.	1	24c#X</J	.	.
.	.	24A</L	.	.
.	4	24E</	.	.
.	5	24C#X</JJ	.	.
!!LO:PB:g=original
=72	=72	=72	=72	=72
2r	.	24eee^;\LL	3	.
.	.	24fffn\	4	.
.	.	24eee\J	3	.
*Xped	*	*	*	*
.	.	24ddd\L	1	.
.	.	24ccc#X\	3	.
.	.	24bbn\JJ	.	.
.	.	24aa\LL	.	.
.	.	24gg#X\	.	.
.	.	24ff#X\J	.	.
.	.	24ee\L	.	.
.	.	24dd\	1	.
.	.	24cc#X\JJ	2	.
*clefG2	*	*	*	*
!	!	!LO:TX:t=P:problem=mixed beam	!	!
4ryy	1	24b#X<'/LL	.	.
.	.	24cc#\	2	.
.	.	24dd\J	1	.
.	.	24dd#X\L	3	.
.	.	24ffn\	5	.
.	.	24ee\JJ	4	.
*clefF4	*	*	*	*
!	!	!LO:TX:t=P:problem=mixed beam	!	!
4ryy	.	24cc#\LL	2	.
.	.	24a\	1	.
*ped	*	*	*	*
.	1	24e</J	.	.
.	.	24c#X</L	.	.
.	.	24A</	.	.
.	5	24E</JJ	.	.
=73	=73	=73	=73	=73
*	*	*8va	*	*
1r	.	24aaa^\LL	2	ff
.	.	24eeee\	5	.
.	.	24cccc#X\J	4	.
.	.	24aaa\L	2	.
*	*	*X8va	*	*
.	.	24eee\	1	.
.	.	24ccc#\JJ	4	.
.	.	24aa^\LL	2	.
.	.	24eee\	5	.
.	.	24ccc#\J	.	.
.	.	24aa\L	.	.
.	.	24ee\	1	.
.	.	24cc#X\JJ	4	.
*	*	*	*below	*
.	.	24a^>/LL	2	.
.	.	24ee/	5	.
.	.	24cc#/J	.	.
.	.	24a/L	.	.
.	.	24e/	1	.
.	.	24c#X/JJ	4	.
*	*	*clefF4	*Xbelow	*
.	.	24A^\LL	2	.
.	.	24e\	5	.
.	.	24c#X\J	.	.
.	.	24A\L	.	.
.	.	24E\	1	.
.	.	24C#X\JJ	4	.
!!LO:LB:g=original
=74	=74	=74	=74	=74
!	!	!LO:TX:t=P:problem=mixed beam	!	!
4ryy	.	24AA^\LL	.	.
.	.	24E\	.	.
.	.	24C#X\J	.	.
.	.	24AA\L	.	.
.	2	24EE</	.	.
.	3	24CC#X</JJ	.	.
24AAA^>/LL	5	4r	.	.
24CC#y/	.	.	.	.
24EE/J	.	.	.	.
24AA/L	1	.	.	.
24C#X/	3	.	.	.
24E/JJ	2	.	.	.
*	*	*clefG2	*	*
2r	.	24A^\LL	2	.
.	.	24c#X\	4	.
.	.	24e\J	1	.
.	.	24a\L	.	.
.	.	24cc#X\	.	.
.	.	24ee\JJ	1	.
.	.	24aa\LL	.	.
.	.	24ccc#X\	.	.
.	.	24eee\J	1	.
.	.	24aaa\L	2	.
*	*	*8va	*	*
.	.	24cccc#\	3	.
.	.	24eeee\JJ	4	.
=75	=75	=75	=75	=75
4AAAA/	.	4aaaa\	5	.
*Xped	*	*X8va	*	*
4c#X: 4E: 4AA:\	.	4aa 4ee 4cc#X 4a\	.	.
*ped	*	*	*	*
4d 4Fn\	.	2bb-X 2ffn 2dd 2b-X\	.	.
[<4GGn [4GGGn^/	.	.	.	.
=76	=76	=76	=76	=76
*^	*	*	*	*
!	!	!	!LO:TX:a:B:t=Rubato.	!	!
8cn 8B- 8E/	8GG]L 8GGG\]	.	1ee 1ccn 1b- 1e	.	.
8ryy	8FF#X 8FFF#X^<;>\	.	.	.	.
4ryy	8GG 8GGG^<\	.	.	.	.
.	8AAJ 8AAA^<\	.	.	.	.
8BB-L 8BBB-^/	2ryy	.	.	.	.
*Xped	*	*	*	*	*
8GG 8GGG^/	.	.	.	.	.
8EE 8EEE^/	.	.	.	.	.
8DD-XJ 8DDD-X^/	.	.	.	.	.
*v	*v	*	*	*	*
!!LO:LB:g=original
=77	=77	=77	=77	=77
*ped	*	*	*	*
!	!	!	!	!LO:DY:t=sempre f
1CC 1CCC	.	8r	.	f
*	*	*8va	*	*
.	.	8aaaL 8fff#X;\	2 4	.
.	.	8bbb- 8ggg\	1 2	.
.	.	8cccc#XJ 8aaa\	1 3	.
.	.	8eeeeL 8ccccn\	3 5	.
.	.	8ddddn 8bbb-\	2 4	.
.	.	8bbb- 8ggg\	1 2	.
*	*	*X8va	*	*
.	.	8gggJ 8bb-\	2 5	.
=78	=78	=78	=78	=78
*	*	*	*^	*
1e-X^	.	8r	.	.	.
.	.	8fff#XL 8aa\	4	1	.
*Xped	*	*	*	*	*
.	.	8ggg 8bb-\	5	2	.
*	*	*8va	*	*	*
.	.	8aaaJ 8ccc\	5	1	.
.	.	8qaaa 8qccc/	4	1	.
.	.	8ccccL 8eee-X;\	5	2	.
.	.	8bbb- 8ddd-X\	.	.	.
*	*	*X8va	*	*	*
.	.	8ggg 8bb-\	2 5	.	.
.	.	8ddd-XJ 8gg\	1 3	.	.
*	*	*	*v	*v	*
=79	=79	=79	=79	=79
*^	*	*	*	*
*	*	*Xbelow	*	*	*
!LO:TX:a:i:t=rit.:dur=8q:ext=ud:problem:text with extension lines	!	!	!	!	!
2en^/	4r	1	1r	.	.
.	4Bn 4G#X\	4 2	.	.	.
2ryy	4c 4A\	3 1	.	.	.
.	4c#X 4A\	4 2	.	.	.
=80	=80	=80	=80	=80	=80
*ped	*	*	*	*	*
(4e 4cn\	2ryy	3 1	1r	.	.
*Xped	*	*	*	*	*
4d#X 4Bn\)	.	4 2	.	.	.
*ped	*	*	*	*	*
2dn: 2B-X:^/	(4d: 4B-:\	2 1	.	.	.
*Xped	*	*	*	*	*
.	4G#X: 4E:\)	5 3	.	.	.
!!LO:LB:g=original
=81	=81	=81	=81	=81	=81
*	*	*^	*	*	*
!	!	!	!	!	!	!LO:DY:t=p a tempo
4r	2ryy	.	.	24ccc\LL	1	p
.	.	.	.	24ddd\	4	.
.	.	.	.	24ccc\J	3	.
.	.	.	.	24eee\L	5	.
.	.	.	.	24ddd\	.	.
.	.	.	.	24ccc\JJ	3	.
*ped	*	*	*	*	*	*
4c 4C'\	.	.	.	24aa\LL	1	.
.	.	.	.	24bb-\	4	.
.	.	.	.	24aa\J	3	.
.	.	.	.	24ccc\L	5	.
.	.	.	.	24bb-\	.	.
.	.	.	.	24aa\JJ	.	.
*clefG2	*	*	*	*	*	*
2b-/	4d\	1	4	24ggn\LL	1	.
.	.	.	.	24aa\	3	.
*Xped	*	*	*	*	*	*
.	.	.	.	24gg\J	2	.
.	.	.	.	24bb-\L	4	.
.	.	.	.	24aa\	.	.
.	.	.	.	24gg\JJ	.	.
.	4e/	.	3	24dd\LL	1	.
.	.	.	.	24ee\	3	.
.	.	.	.	24dd\J	2	.
.	.	.	.	24ff\L	4	.
.	.	.	.	24ee\	.	.
.	.	.	.	24dd\JJ	.	.
*	*	*v	*v	*	*	*
*v	*v	*	*	*	*
=82	=82	=82	=82	=82
*	*below	*	*	*
4a 4f/	1 2	24cc\LL	1	.
.	.	24dd\	4	.
.	.	24cc\J	3	.
.	.	24ee\L	5	.
.	.	24dd\	.	.
.	.	24cc\JJ	.	.
*	*	*	*below	*
4c/	4	24a/LL	1	.
.	.	24b-/	4	.
.	.	24a/J	3	.
.	.	24cc/L	5	.
.	.	24b-/	.	.
.	.	24a/JJ	.	.
*clefF4	*Xbelow	*	*	*
4A\	1	24f/LL	1	.
.	.	24g/	3	.
.	.	24f/J	2	.
.	.	24a/L	4	.
.	.	24g/	.	.
.	.	24f/JJ	.	.
*	*below	*	*	*
4FF/	5	24d/LL	1	.
.	.	24e/	3	.
.	.	24d/J	2	.
.	.	24f/L	4	.
.	.	24e/	.	.
.	.	24d/JJ	.	.
!!LO:LB:g=original
=83	=83	=83	=83	=83
4AA/	4	24c/LL	.	.
.	.	24d/	.	.
.	.	24e/J	.	.
.	.	24f/L	.	.
.	.	24g/	.	.
.	.	24a/JJ	.	.
4C/	2	24b-\LL	.	.
.	.	24cc\	.	.
.	.	24dd\J	.	.
.	.	24ee\L	.	.
.	.	24ff\	.	.
.	.	24gg\JJ	.	.
*	*Xbelow	*	*	*
4c\	1	24aa\LL	.	.
.	.	24bb-\	.	.
.	.	24ccc\J	.	.
.	.	24ddd\L	.	.
.	.	24eee\	.	.
*	*	*	*Xbelow	*
.	.	24fff\JJ	1	.
4F\	2	24ggg\LL	.	.
.	.	24aaa\	.	.
*	*	*8va	*	*
.	.	24bbb-\J	.	.
.	.	24cccc\L	5	.
.	.	24aaa\	3	.
.	.	24fff\JJ	1	.
=84	=84	=84	=84	=84
4GG/	.	24dddd^\LL	4	.
.	.	24eeee\	.	.
.	.	24dddd\J	.	.
.	.	24cccc\L	.	.
.	.	24bbb-\	.	.
*	*	*X8va	*	*
.	.	24aaa\JJ	1	.
*	*below	*	*	*
[4B-: 4D:\	3	24ggg\LL	4	.
.	.	24fff\	.	.
.	.	24eee\J	.	.
.	.	24ddd\L	1	.
.	.	24ccc\	3	.
.	.	24bb-\JJ	2	.
16B-] 16E 16C\	4	24aa\LL	1	<
.	.	24bb-\	2	.
16r	.	.	.	.
.	.	24bbn\J	1	.
8r	.	24ccc\L	2	.
.	.	24aaa\	5	.
.	.	24ggg\JJ	.	[
*clefG2	*	*	*	*
!	!	!LO:TX:t=P:problem=mixed beam	!	!
4ryy	.	24eee\LL	2	>
.	.	24ccc\	1	.
.	1	24bb-X</J	.	.
.	.	24gg</L	.	.
.	3	24ee</	.	.
.	5	24cc</JJ	.	]
!!LO:LB:g=original
=85	=85	=85	=85	=85
*^	*	*	*	*
4r	2ryy	.	24ccc\LL	3	.
.	.	.	24ddd\	.	.
.	.	.	24ccc\J	.	.
.	.	.	24fff\L	.	.
.	.	.	24ddd\	.	.
.	.	.	24ccc\JJ	.	.
4cc 4c/	.	.	24aa\LL	1	.
.	.	.	24bb-\	3	.
.	.	.	24aa\J	2	.
.	.	.	24ddd\L	5	.
.	.	.	24ccc\	4	.
.	.	.	24aa\JJ	.	.
2b-/	4d\	4	24gg\LL	1	.
.	.	.	24aa\	3	.
.	.	.	24gg\J	2	.
.	.	.	24ccc\L	5	.
.	.	.	24aa\	3	.
.	.	.	24gg\JJ	.	.
.	4e\	.	24dd\LL	1	.
.	.	.	24ee\	3	.
.	.	.	24dd\J	2	.
.	.	.	24gg\L	.	.
.	.	.	24ee\	.	.
.	.	.	24dd\JJ	.	.
*v	*v	*	*	*	*
=86	=86	=86	=86	=86
4a 4f/	1 2	24cc\LL	1	.
.	.	24dd\	3	.
.	.	24cc\J	2	.
.	.	24ff\L	.	.
.	.	24dd\	.	.
.	.	24cc\JJ	.	.
4c/	4	24a\LL	1	.
.	.	24b-\	3	.
.	.	24a\J	.	.
.	.	24dd\L	5	.
.	.	24cc\	4	.
.	.	24a\JJ	.	.
*clefF4	*Xbelow	*	*below	*
4A\	1	24f/LL	1	.
.	.	24g/	3	.
.	.	24f/J	2	.
.	.	24cc/L	5	.
.	.	24a/	4	.
.	.	24f/JJ	.	.
4FF/	.	24d/LL	1	.
.	.	24e/	3	.
.	.	24d/J	2	.
.	.	24a/L	5	.
.	.	24f/	4	.
.	.	24d/JJ	1	.
!!LO:PB:g=original
=87	=87	=87	=87	=87
*^	*	*	*	*
*	*	*below	*	*	*
4AA-X/	1AA-	4_5	24d-X/LL	2	pp
.	.	.	24c/	.	.
.	.	.	24d-/J	.	.
.	.	.	24e-X/L	.	.
.	.	.	24f/	.	.
.	.	.	24g-X/JJ	.	.
4D-X/	.	.	24a-X\LL	.	<
.	.	.	24b-\	.	.
.	.	.	24cc\J	.	.
.	.	.	24dd-X\L	.	.
.	.	.	24ee-X\	.	.
.	.	.	24ff\JJ	.	.
4A-X/	.	.	24gg-X\LL	.	.
.	.	.	24aa-X\	.	.
.	.	.	24bb-\J	.	.
.	.	.	24ccc\L	.	.
.	.	.	24ddd-X\	.	.
.	.	.	24eee-X\JJ	.	.
4F/	.	.	24fff\LL	.	.
.	.	.	24ggg-X\	.	.
.	.	.	24aaa-X\J	.	.
*	*	*	*8va	*Xbelow	*
.	.	.	24bbb-\L	.	.
.	.	.	24cccc\	1	.
*Xped	*	*	*	*	*
.	.	.	24dddd-\JJ	2	[[
=88	=88	=88	=88	=88	=88
4GG-X/	1GG-X	.	24eeee-X^<\LL	3	>
.	.	.	24ffff\	5	.
.	.	.	24eeee-\J	3	.
.	.	.	24dddd-X\L	.	.
.	.	.	24cccc\	.	.
.	.	.	24bbb-\JJ	.	.
*	*	*Xbelow	*X8va	*	*
4AA-X/	.	4	24aaa-X\LL	.	.
.	.	.	24ggg-X\	.	.
.	.	.	24fff\J	.	.
.	.	.	24eee-\L	.	.
.	.	.	24ddd-\	.	.
.	.	.	24ccc\JJ	.	.
4A-X/	.	1	24bb-\LL	.	.
.	.	.	24aa-X\	.	.
.	.	.	24gg-X\J	.	.
.	.	.	24ff\L	.	.
.	.	.	24ee-X\	.	.
.	.	.	24dd-X\JJ	.	]
4C/	.	2	24cc/LL	.	.
.	.	.	24b-/	.	.
.	.	.	24a-X/J	.	.
.	.	.	24g-X/L	.	.
.	.	.	24f/	1	.
.	.	.	24e-X/JJ	2	.
!!LO:LB:g=original
=89	=89	=89	=89	=89	=89
*	*	*	*^	*	*
*ped	*	*	*	*	*	*
4FF/	2FF^\	.	24d/LL	4dn\	1	<
.	.	.	24b-/	.	4	.
.	.	.	24a-X/J	.	.	.
.	.	.	24cc-X/L	.	.	.
.	.	.	24b-/	.	.	.
.	.	.	24a-/JJ	.	.	.
4G#X 4BBn\	.	.	24d/LL	4d\	1	.
*Xped	*	*	*	*	*	*
.	.	.	24cc#X/	.	4	.
.	.	.	24bn/J	.	.	.
.	.	.	24dd/L	.	.	.
.	.	.	24cc#/	.	.	.
.	.	.	24b/JJ	.	.	.
4FF#X/	2FF#^\	.	24f#X/LL	4f#\	1	.
.	.	.	24cc#/	.	4	.
.	.	.	24b/J	.	.	.
.	.	.	24dd/L	.	.	.
.	.	.	24cc#/	.	.	.
.	.	.	24b/JJ	.	.	.
4F#X 4BB/	.	.	24b/LL	4b\	1	.
.	.	.	24een/	.	3	.
.	.	.	24dd/J	.	2	.
.	.	.	24ff#X/L	.	4	.
.	.	.	24ee/	.	.	.
.	.	.	24dd/JJ	.	.	.
=90	=90	=90	=90	=90	=90	=90
4GG/	2GGn^\	.	24bn/LL	4b\	1	.
.	.	.	24ee/	.	3	.
.	.	.	24dd/J	.	.	.
.	.	.	24ffn/L	.	.	.
.	.	.	24ee/	.	.	.
.	.	.	24dd/JJ	.	.	.
4Fn 4BBn/	.	.	24dd/LL	4dd\	1	.
.	.	.	24cccn/	.	4	.
.	.	.	24bbn/J	.	.	.
.	.	.	24ddd/L	.	.	.
.	.	.	24ccc/	.	.	.
.	.	.	24bb/JJ	.	.	.
4GG#X/	2GG#^\	.	24ff/LL	4ff\	1	.
.	.	.	24ccc/	.	3	.
.	.	.	24bb-X/J	.	.	.
.	.	.	24ddd/L	.	.	.
.	.	.	24ccc/	.	.	.
.	.	.	24bb-/JJ	.	.	.
4D 4BB-X/	.	4 2	24ff/LL	4ff\	1	.
.	.	.	24eee/	.	4	.
.	.	.	24ddd/J	.	.	.
.	.	.	24fff/L	.	.	.
.	.	.	24eee/	.	.	.
.	.	.	24ddd/JJ	.	.	.
!!LO:LB:g=original
=91	=91	=91	=91	=91	=91	=91
*ped	*	*	*	*	*	*
4AA/	2AA^\	.	24aa/LL	4aan\	1	.
.	.	.	24eee/	.	3	.
.	.	.	24ddd/J	.	.	.
.	.	.	24fff/L	.	.	.
.	.	.	24eee/	.	.	.
.	.	.	24ddd/JJ	.	.	.
4A 4D/	.	.	24ddd/LL	4ddd\	1	.
*Xped	*	*	*	*	*	*
.	.	.	24gggn/	.	3	.
.	.	.	24fff/J	.	.	.
.	.	.	24aaa/L	.	.	.
.	.	.	24ggg/	.	.	.
.	.	.	24fff/JJ	.	.	.
4BB-/	2BB-^\	.	24ddd/LL	4ddd\	1	.
.	.	.	24ggg/	.	3	.
.	.	.	24fff/J	.	2	.
.	.	.	24aaa-X/L	.	4	.
.	.	.	24ggg/	.	.	.
.	.	.	24fff/JJ	.	.	.
*	*	*below	*8va	*	*	*
[4A-X 4D/	.	3	24ddd/LL	4ddd\	.	.
.	.	.	24ggg/	.	.	.
.	.	.	24fff/	.	.	.
.	.	.	24dddd/	.	.	.
.	.	.	24ggg/	.	.	.
.	.	.	24fff/JJ	.	.	.
=92	=92	=92	=92	=92	=92	=92
*ped	*	*	*	*	*	*
4A-X] 4D-X/	1BBn^	4 5	24fff/LL	4fff\	.	<
.	.	.	24eeee-X/	.	3	.
.	.	.	24dddd-X/J	.	2	.
.	.	.	24ffff/L	.	5	.
.	.	.	24eeee-/	.	3	.
.	.	.	24dddd-/JJ	.	2	.
*	*	*Xbelow	*	*	*	*
4E-X/	.	3	24ggg-X/LL	4ggg-\	.	.
.	.	.	24eeee-/	.	.	.
.	.	.	24dddd-/J	.	.	.
.	.	.	24gggg-X/L	.	.	.
.	.	.	24eeee-/	.	.	.
.	.	.	24dddd-/JJ	.	.	.
*Xped	*	*	*	*	*	*
4En/	.	.	24gggn/LL	4ggg\	.	.
.	.	.	24eeee-/	.	.	.
.	.	.	24dddd-/J	.	.	.
.	.	.	24ggggn/L	.	.	.
.	.	.	24eeee-/	.	.	.
.	.	.	24dddd-/JJ	.	.	[
4F/	.	1	24aaa-X/LL	4aaa-\	.	.
.	.	.	24eeee-/	.	.	.
.	.	.	24dddd-/J	.	.	.
.	.	.	24aaaa-X/L	.	.	.
.	.	.	24eeee-/	.	.	.
.	.	.	24dddd-/JJ	.	.	.
*v	*v	*	*	*	*	*
!!LO:LB:g=original
=93	=93	=93	=93	=93	=93
*ped	*	*	*	*	*
4C 4FF 4CC/	.	24aaa/LL	4aaan\	.	f
.	.	24ddddn/	.	.	.
.	.	24cccc/J	.	.	.
.	.	24aaaan/L	.	.	.
.	.	24dddd/	.	.	.
.	.	24cccc/JJ	.	.	.
*clefG2	*	*	*	*	*
4cc: 4a: 4f: 4c:/	.	24aaa/LL	4aaa\	.	.
.	.	24dddd/	.	.	.
.	.	24cccc/J	.	.	.
.	.	24ffff/L	.	5	.
.	.	24dddd/	.	.	.
.	.	24cccc/JJ	.	.	.
16aa\	1	24aaa\LL	2ryy	1	.
.	.	24eeee\	.	5	.
16r	.	.	.	.	.
.	.	24dddd\J	.	4	.
8r	.	24cccc\L	.	3	.
.	.	24aaa\	.	2	.
*	*	*X8va	*	*	*
.	.	24fff\JJ	.	1	.
!	!	!LO:TX:t=P:problem=mixed beam	!	!	!
4ryy	.	24eee\LL	.	5	.
.	.	24ddd\	.	.	.
.	.	24ccc\J	.	.	.
.	.	24aa\L	.	.	.
.	.	24ff\	.	1	.
*	*below	*	*	*	*
.	2	24dd</JJ	.	.	.
*	*	*v	*v	*	*
=94	=94	=94	=94	=94
!	!	!LO:TX:t=P:problem=mixed beam	!	!
2ryy	3	24cc<^/LL	.	.
.	.	24eee\	5	.
.	.	24ddd\J	.	.
.	.	24ccc\L	.	.
.	.	24aa\	.	.
.	.	24ff\JJ	1	.
!	!	!LO:TX:t=P:problem=mixed beam	!	!
.	.	24ee\LL	5	.
.	.	24dd\	.	.
.	.	24cc\J	.	.
.	.	24a\L	.	.
.	.	24f\	1	.
.	2	24d</JJ	.	.
!	!	!LO:TX:t=P:problem=mixed beam	!	!
4ryy	3	24c<^/LL	.	.
.	.	24ee\	5	.
.	.	24dd\J	.	.
.	.	24cc\L	.	.
.	.	24a\	.	.
.	.	24f\JJ	1	.
*clefF4	*	*clefF4	*	*
!	!	!LO:TX:t=P:problem=mixed beam	!	!
4ryy	.	24e\LL	5	.
.	.	24d\	.	.
.	.	24c\J	.	.
.	.	24A\L	.	.
.	.	24F\	1	.
.	.	24D</JJ	.	.
!!LO:LB:g=original
=95	=95	=95	=95	=95
!	!	!LO:TX:t=P:problem=mixed beam	!	!
2ryy	.	24C<^/LL	.	.
.	.	24e\	5	.
.	.	24d\J	.	.
.	.	24c\L	.	.
.	.	24A\	.	.
.	.	24F\JJ	1	.
!	!	!LO:TX:t=P:problem=mixed beam	!	!
.	.	24E\LL	5	.
.	.	24D\	.	.
.	.	24C\J	.	.
.	.	24AA\L	.	.
.	1	24FF</	.	.
.	2	24DD</JJ	.	.
!LO:TX:t=P:problem=mixed beam	!	!	!	!
24CC/LL	3	4ryy	.	.
24AAA/	5	.	.	.
24CC/J	.	.	.	.
24DD/L	.	.	.	.
24FF/	1	.	.	.
24AA>\JJ	.	.	2	.
4r	.	24C\LL	3	.
.	.	24D\	4	.
.	.	24F\J	1	.
.	.	24A\L	.	.
.	.	24c\	.	.
.	.	24d\JJ	4	.
*	*	*clefG2	*	*
=96	=96	=96	=96	=96
2r	.	24f\LL	1	.
.	.	24a\	.	.
.	.	24cc\J	.	.
.	.	24dd\L	.	.
.	.	24ff\	1	.
.	.	24aa\JJ	.	.
.	.	24ccc\LL	.	.
.	.	24ddd\	.	.
.	.	24fff\J	1	.
.	.	24aaa\L	2	.
*	*	*8va	*	*
.	.	24cccc\	3	.
.	.	24dddd\JJ	4	.
*Xped	*	*	*	*
4r	.	4ffff\	5	.
*	*	*X8va	*	*
4c:: 4A:: 4F:: 4C::\	.	4ff:: 4cc:: 4a:: 4f::\	.	.
!!LO:LB:g=original
=97	=97	=97	=97	=97
*	*	*^	*	*
*ped	*	*	*tuplet	*	*
!	!	!LO:TX:a:i:t=à capriccio (più lento)	!	!	!
4DD-X'/	.	4r	4ryy	.	.
4a:: 4f:: [>4d-X:: 4c-X::\	.	4aa:: 4ff:: [4dd-X:: 4cc-X::\	4ryy	3 5	sf
8b- 8g-X 8d-] 8B-'\	.	2bb- 2gg-X/	12dd-\L]	4 5	.
.	.	.	12ee-X\	2	.
*Xped	*	*	*	*	*
8r	.	.	.	.	.
.	.	.	12dd-\J	1	.
4r	.	.	12ff\L	3	.
.	.	.	12ee-\	.	.
.	.	.	12dd-\J	1	.
*	*	*v	*v	*	*
=98	=98	=98	=98	=98
*^	*	*	*	*
*ped	*	*	*	*	*
4GGGn'/	2ryy	.	4r	.	.
4a:: 4f:: 4c#X:: [4Bn'::\	.	4 5	[4aa:: 4ff:: 4cc#X:: [4bn::\	1 2 4 5	sf
*tuplet	*	*	*	*	*
*Xped	*	*Xbelow	*	*	*
12dn/L	2B\]	3	8aa] 8ff 8ddn 8b'\]	.	.
12en/	.	2	.	.	.
.	.	.	8r	.	.
12d/J	.	3	.	.	.
12f/L	.	1	4r	.	.
12e/	.	.	.	.	.
12d/J	.	.	.	.	.
*v	*v	*	*	*	*
=99	=99	=99	=99	=99
*	*	*^	*	*
*ped	*	*	*	*	*
!	!	!LO:TX:b:Bi:t=rit._ e_ dim_:problem:dynamics with extension lines	!	!	!LO:HP:t=rit. e dim.
4CCn'/	.	4ryy	4ryy	.	>
[4a:: 4f:: 4d-X:: 4Bn::\	.	2.aa:: 2.ff::/	4dd-X:: 4bn::\	.	.
*Xped	*below	*	*	*below	*
8a] 8f 8dn 8B-X\	3 5	.	2ddn 2b-X\	2 1	.
*	*Xbelow	*	*	*	*
4c\	4	.	.	.	.
8B-\	5	.	.	.	.
=100	=100	=100	=100	=100	=100
*ped	*	*	*	*	*
4CCC/	.	4r	4ryy	.	.
*clefG2	*	*	*	*	*
[4b-: 4e-X: 4d-X: [4B-:/	.	2.aa:/	4ee-X: 4dd-X: 4a:\	.	.
8b-]L 8en 8d- 8B-/]	.	.	2een 2cc\	3 1	.
*Xped	*	*	*	*	*
*clefF4	*below	*	*	*	*
8E/	1	.	.	.	.
8Dn/	.	.	.	.	.
8C/J	3	.	.	.	]]
!!LO:PB:g=original
=101	=101	=101	=101	=101	=101
*^	*	*	*	*	*
*ped	*	*	*	*	*	*
!	!	!	!	!	!	!LO:DY:t=p a tempo
4A 4FF/	4ryy	.	8ffL 8f\	4ryy	.	p
*	*	*	*Xtuplet	*	*Xbelow	*
.	.	.	24aaa\L	.	5	.
.	.	.	24ggg\	.	.	.
.	.	.	24fff\JJ	.	.	.
*clefG2	*	*	*	*	*	*
[2.aa: [2.ff^:/	4bn:\	.	24ddd/LL	4ddd\	1	.
.	.	.	24ggg/	.	4	.
.	.	.	24fff/	.	3	.
.	.	.	24aaa/	.	5	.
.	.	.	24ggg/	.	.	.
.	.	.	24fff/JJ	.	.	.
*Xped	*	*	*	*	*	*
.	4cc\	.	24ccc/LL	4ccc\	1	.
.	.	.	24ggg/	.	4	.
.	.	.	24fff/	.	.	.
.	.	.	24aaa/	.	.	.
.	.	.	24ggg/	.	.	.
.	.	.	24fff/JJ	.	.	.
.	4dd\	3	24bbn/LL	4bb\	1	.
.	.	.	24ggg/	.	4	.
.	.	.	24fff/	.	.	.
.	.	.	24aaa/	.	.	.
.	.	.	24ggg/	.	.	.
.	.	.	24fff/JJ	.	.	.
=102	=102	=102	=102	=102	=102	=102
4aa] 4ff] 4cc\	4ryy	4	24ccc/LL	4ccc\	1	.
.	.	.	24ggg/	.	.	.
.	.	.	24fff/	.	.	.
.	.	.	24aaa/	.	.	.
.	.	.	24ggg/	.	.	.
.	.	.	24fff/JJ	.	.	.
[2.a [2.f^/	4Bn\	.	24ddd/LL	4ddd\	.	.
.	.	.	24ggg/	.	.	.
.	.	.	24fff/	.	.	.
.	.	.	24aaa/	.	.	.
.	.	.	24ggg/	.	.	.
.	.	.	24fff/JJ	.	.	.
.	4c\	.	24ccc/LL	4ccc\	.	.
.	.	.	24ggg/	.	.	.
.	.	.	24fff/	.	.	.
.	.	.	24aaa/	.	.	.
.	.	.	24ggg/	.	.	.
.	.	.	24fff/JJ	.	.	.
.	4d\	3	24bbn/LL	4bb\	.	.
.	.	.	24ggg/	.	.	.
.	.	.	24fff/	.	.	.
.	.	.	24aaa/	.	.	.
.	.	.	24ggg/	.	.	.
.	.	.	24fff/JJ	.	.	.
!!LO:LB:g=original
=103	=103	=103	=103	=103	=103	=103
!LO:TX:t=P:problem=brak zakończenia ligatury	!	!	!	!	!	!
4a] 4f] 4c/	4ryy	4	24ccc/LL	4ccc^\	1	.
.	.	.	24ggg/	.	4	.
.	.	.	24fff/	.	.	.
.	.	.	24aaa/	.	.	.
.	.	.	24ggg/	.	.	.
*clefF4	*	*	*	*	*	*
.	.	.	24fff/JJ	.	.	.
2.A: 2.F:^/	4AA:\	5	24eee/LL	4eee^\	1	<
.	.	.	24ggg/	.	4	.
.	.	.	24fff/	.	3	.
.	.	.	24aaa/	.	5	.
.	.	.	24ggg/	.	.	.
.	.	.	24fff/JJ	.	3	.
.	4BB-X\	5	24ddd/LL	4ddd^\	1	.
.	.	.	24ggg/	.	4	.
.	.	.	24fff/	.	.	.
.	.	.	24aaa/	.	.	.
.	.	.	24ggg/	.	.	.
.	.	.	24fff/JJ	.	.	.
.	4BBn\	5	24ccc/LL	4ccc^\	.	.
.	.	.	24ggg/	.	.	.
.	.	.	24fff/	.	.	.
.	.	.	24aaa/	.	.	.
.	.	.	24ggg/	.	.	.
.	.	.	24fff/JJ	.	.	[[
*v	*v	*	*	*	*	*
=104	=104	=104	=104	=104	=104
4C/	4	24bbn/LL	4bb^\	.	>
.	.	24ggg/	.	.	.
.	.	24fff/	.	.	.
.	.	24aaa/	.	.	.
.	.	24ggg/	.	.	.
.	.	24fff/JJ	.	.	.
4C#X/	3	24bb-X/LL	4bb-^\	.	.
.	.	24ggg/	.	.	.
.	.	24fff/	.	.	.
.	.	24aaa/	.	.	.
.	.	24ggg/	.	.	.
.	.	24fff/JJ	.	.	.
*	*Xbelow	*	*	*	*
4D\	1	24aa/LL	4aa^\	.	.
.	.	24ggg/	.	.	.
.	.	24fff/	.	.	.
.	.	24aaa/	.	.	.
.	.	24ggg/	.	.	.
.	.	24fff/JJ	.	.	.
4E\	2	24gg/LL	4gg^\	.	]
.	.	24ggg/	.	.	.
.	.	24fff/	.	.	.
.	.	24aaa/	.	.	.
.	.	24ggg/	.	.	.
.	.	24fff/JJ	.	.	.
*	*	*v	*v	*	*
!!LO:LB:g=original
=105	=105	=105	=105	=105
*^	*	*	*	*
*ped	*	*	*	*	*
8F\	4ryy	.	8ff\L	1	f
*	*	*	*8va	*	*
8r	.	.	24gggg\L	5	.
.	.	.	24ffff\	4	.
.	.	.	24dddd\JJ	2	.
*	*Xtuplet	*	*	*	*
12BBB-/L	6.BBB-\	.	24bbb-\LL	1	.
.	.	.	24dddd\	4	.
12DD/	.	.	24bbb-\	2	.
.	.	.	24ffff\	5	.
12BB-/J	.	.	24dddd\	.	.
.	.	.	24bbb-\JJ	.	.
12DD/L	6.DD\	.	24ggg\LL	1	.
.	.	.	24bbb-\	3	.
12BB-/	.	.	24ggg\	2	.
.	.	.	24dddd\	5	.
12D/J	.	.	24bbb-\	.	.
.	.	.	24ggg\JJ	2	.
12FF/L	6.FF\	.	24fff\LL	1	.
.	.	.	24ggg\	3	.
12D/	.	.	24fff\	2	.
.	.	.	24bbb-\	5	.
12F/J	.	.	24ggg\	.	.
.	.	.	24fff\JJ	.	.
*	*	*	*X8va	*	*
=106	=106	=106	=106	=106	=106
12BB-/L	6.BB-\	.	24ddd\LL	1	.
.	.	.	24fff\	4	.
12D/	.	.	24ddd\	2	.
.	.	.	24ggg\	5	.
12B-/J	.	.	24fff\	.	.
.	.	.	24ddd\JJ	2	.
12D/L	6.D\	.	24bb-\LL	1	.
.	.	.	24ddd\	4	.
12B-/	.	.	24bb-\	.	.
.	.	.	24fff\	.	.
*Xped	*	*	*	*	*
12d/J	.	.	24ddd\	.	.
.	.	.	24bb-\JJ	.	.
12F/L	6.F\	.	24gg\LL	1	.
.	.	.	24bb-\	3	.
12d/	.	.	24gg\	.	.
.	.	.	24ddd\	.	.
12f/J	.	.	24bb-\	.	.
.	.	.	24gg\JJ	.	.
12B-/L	6.B-\	.	24ff\LL	1	.
.	.	.	24gg\	3	.
12d/	.	.	24ff\	.	.
.	.	.	24bb-\	.	.
12b-/J	.	.	24gg\	.	.
.	.	.	24ff\JJ	.	.
*v	*v	*	*	*	*
!!LO:LB:g=original
=107	=107	=107	=107	=107
12d\L	3	24dd\LL	1	.
.	.	24ff\	4	.
12f\	1	24dd\	.	.
.	.	24gg\	.	.
12d\J	.	24ff\	.	.
.	.	24dd\JJ	.	.
12B-\L	4	24b-\LL	1	.
.	.	24dd\	4	.
12d\	1	24b-\	.	.
.	.	24ff\	.	.
12B-\J	.	24dd\	.	.
.	.	24b-\JJ	.	.
12G\L	3	24g\LL	1	.
.	.	24b-\	3	.
12B-\	2	24g\	.	.
.	.	24dd\	.	.
12G\J	.	24b-\	.	.
.	.	24g\JJ	.	.
12F\L	4	24f/LL	1	.
.	.	24g/	3	.
12G\	1	24f/	.	.
.	.	24b-/	.	.
12F\J	.	24g/	.	.
.	.	24f/JJ	.	.
=108	=108	=108	=108	=108
*^	*	*	*	*
12D\L	4ryy	4	24d/LL	1	.
.	.	.	24f/	4	.
12F\	.	1	24d/	.	.
.	.	.	24g/	.	.
12D\J	.	.	24f/	.	.
.	.	.	24d/JJ	.	.
*	*	*below	*	*	*
12BB-/L	6.BB-\	4	24B-/LL	1	.
.	.	.	24d/	4	.
12D/	.	.	24B-/	.	.
.	.	.	24f/	.	.
12F/J	.	.	24d/	.	.
.	.	.	24B-/JJ	.	.
12AA/L	6.AA\	.	24A/LL	.	.
.	.	.	24d/	.	.
12D/	.	.	24B-/	.	.
.	.	.	24f/	.	.
12F/J	.	.	24d/	.	.
.	.	.	24B-/JJ	.	.
12GG/	6.GG\	5	24G/LL	1	.
.	.	.	24d-X/	3	.
*	*	*Xbelow	*	*	*
6D-/	.	3	24B-/	.	.
.	.	.	24f/JJ	.	.
.	.	.	12r	.	.
*v	*v	*	*	*	*
=109	=109	=109	=109	=109
*ped	*below	*	*below	*
24FFF;\LL	5	24r	.	.
24AAA\	3	24FF<;/LL	1	.
24BBB-\	.	24GG</	.	.
24CC\	1	24AA</	.	.
24DDn\	.	24BB-</	4	.
24EE\JJ	.	24C</JJ	1	.
24FF\LL	1	24Dn</LL	.	.
*Xped	*	*	*	*
24GG\	4	24E</	.	.
24AA\	.	24F</	1	.
24BB-\	.	24G</	.	.
24C\	.	24A</	.	.
24D\JJ	.	24B-</JJ	.	.
!!LO:LB:g=original
=-	=-	=-	=-	=-
24E\LL	.	24c/LL	.	.
!	!	!	!	!LO:HP:a
24F\	.	24d/	.	<
24G\	.	24e/	.	.
24A\	.	24f/	.	.
24B-\	.	24g/	.	.
24c\JJ	.	24a/JJ	.	.
24d>\LL	.	24b-/LL	.	.
24e>\	.	24cc/	.	.
24f>\	.	24dd/	.	.
24g>\	.	24ee/	.	.
24a>\	.	24ff/	.	.
24b->\JJ	.	24gg/JJ	.	.
=110	=110	=110	=110	=110
24cc>\LL	.	24aa/LL	.	.
24dd>\	.	24bb-/	.	.
24ee>\	.	24ccc/	.	.
24ff>\	.	24ddd/	.	.
24gg>\	.	24eee/	.	.
24aa>\JJ	.	24fff/JJ	.	.
24bb->\LL	.	24ggg/LL	.	.
24ccc>\	.	24aaa/	.	.
*8va	*Xbelow	*8va	*Xbelow	*
24ddd>\	.	24bbb-/	.	.
24eee>\	.	24cccc/	.	.
24fff>\	1	24dddd/	2	.
24ggg>\JJ	3	24eeee/JJ	3	.
4aaa>\	2	4ffff/	4	[
*X8va	*	*X8va	*	*
4d:: 4A:: 4D::\	.	4ff:: 4dd:: 4a:: 4f::\	.	.
=111	=111	=111	=111	=111
*ped	*	*	*	*
!	!	!LO:TX:b:i:t=rit.:dur=4q:ext=ud:problem:text with extension lines	!	!
4Bn:: 4F:: 4D:: 4GG::\	.	4ddd:: 4gg:: 4ff:: 4bn::'\	.	ff
4GGG'/	.	4r	.	.
8d:L 8B-X: 8G: 8C:\	.	8dddL 8bb-X 8dd^\	3 5	.
8c: 8B-: 8G: 8C:\	.	8eee 8bb- 8ee^\	.	.
*Xped	*	*	*	*
8d: 8B-: 8G: 8C:\	.	8ddd 8bb- 8dd^\	.	.
8e:J 8B-: 8G: 8C:\	.	8cccJ 8bb- 8cc^\	4 5	.
=112	=112	=112	=112	=112
*ped	*	*	*	*
4FF 4CC 4FFF/	.	4aaa 4ccc 4aa^\	.	.
4r	.	4r	.	.
4a> 4f> 4c 4A\	.	4fff 4ccc 4aa 4ff'>/	.	.
4r	.	4r	.	.
=113	=113	=113	=113	=113
1FF 1FFF	.	4F< 4AA<'/	.	.
.	.	4r	.	.
*Xped	*	*	*	*
.	.	2r	.	.
==	==	==	==	==
*-	*-	*-	*-	*-
!!!system-decoration: {(*)}
!!!RDF**kern: > = above
!!!RDF**kern: < = below
!!!ENC: Andrzej Gręziak
!!!END: 2022-07-25
!!!ENC: Andrzej Kubiczek
!!!END: 2022-09-12
